2024-03-19 15:17:23,281 - INFO - ur_api: Send data: movej([0, 0, 0, 0, 0, 0], a=0.5, v=0.5, t=0, r=0)

2024-03-19 15:17:23,281 - INFO - ur_api: Send data: movej([0, 0, 0, 0, 0, 0], a=0.5, v=0.5, t=0, r=0)

2024-03-19 15:19:16,969 - INFO - ur_api: Send data: movel(p[-140, -270, 150, 3.117, 0.025, -3.141], a=0.1, v=0.1, t=0, r=0)

2024-03-19 15:19:16,969 - INFO - ur_api: Send data: movel(p[-140, -270, 150, 3.117, 0.025, -3.141], a=0.1, v=0.1, t=0, r=0)

2024-03-19 15:20:27,999 - INFO - ur_api: Send data: movel(p[-0.14, -0.27, 0.15, 0.003117, 2.5e-05, -0.003141], a=0.1, v=0.1, t=0, r=0)

2024-03-19 15:20:27,999 - INFO - ur_api: Send data: movel(p[-0.14, -0.27, 0.15, 0.003117, 2.5e-05, -0.003141], a=0.1, v=0.1, t=0, r=0)

2024-03-19 15:22:35,354 - INFO - ur_api: Send data: movel(p[-0.14, -0.27, 0.15, 3.117, 0.025, -3.141], a=0.1, v=0.1, t=0, r=0)

2024-03-19 15:22:35,354 - INFO - ur_api: Send data: movel(p[-0.14, -0.27, 0.15, 3.117, 0.025, -3.141], a=0.1, v=0.1, t=0, r=0)

2024-03-19 15:25:54,720 - INFO - ur_api: Send data: movel(p[-0.14, -0.27, 0.15, -1.0805685742253084, 0.6895397389198235, 1.094973726979827], a=0.1, v=0.1, t=0, r=0)

2024-03-19 15:25:54,720 - INFO - ur_api: Send data: movel(p[-0.14, -0.27, 0.15, -1.0805685742253084, 0.6895397389198235, 1.094973726979827], a=0.1, v=0.1, t=0, r=0)

2024-03-19 15:26:39,002 - INFO - ur_api: Send data: movel(p[-0.14, -0.27, 0.15, -1.0805685742253084, 0.6895397389198235, 1.094973726979827], a=0.1, v=0.1, t=0, r=0)

2024-03-19 15:26:39,002 - INFO - ur_api: Send data: movel(p[-0.14, -0.27, 0.15, -1.0805685742253084, 0.6895397389198235, 1.094973726979827], a=0.1, v=0.1, t=0, r=0)

2024-03-19 15:28:32,368 - INFO - ur_api: Send data: movel(p[-0.14, -0.27, 0.15, -0.0014025100106328677, 3.1163657629219523, 0.03833332889742368], a=0.1, v=0.1, t=0, r=0)

2024-03-19 15:28:32,368 - INFO - ur_api: Send data: movel(p[-0.14, -0.27, 0.15, -0.0014025100106328677, 3.1163657629219523, 0.03833332889742368], a=0.1, v=0.1, t=0, r=0)

2024-03-19 15:29:11,910 - INFO - ur_api: Send data: movel(p[-0.14, -0.27, 0.15, -0.0014025100106328677, 3.1163657629219523, 0.03833332889742368], a=0.1, v=0.1, t=0, r=0)

2024-03-19 15:29:11,910 - INFO - ur_api: Send data: movel(p[-0.14, -0.27, 0.15, -0.0014025100106328677, 3.1163657629219523, 0.03833332889742368], a=0.1, v=0.1, t=0, r=0)

2024-03-19 15:31:30,773 - INFO - ur_api: Send data: movel(p[-0.14, -0.27, 0.15, -0.0014025100106328677, 3.1163657629219523, 0.03833332889742368], a=0.1, v=0.1, t=0, r=0)

2024-03-19 15:31:30,773 - INFO - ur_api: Send data: movel(p[-0.14, -0.27, 0.15, -0.0014025100106328677, 3.1163657629219523, 0.03833332889742368], a=0.1, v=0.1, t=0, r=0)

2024-03-19 15:32:11,160 - INFO - ur_api: Send data: movel(p[-0.14, -0.27, 0.15, -0.0014025100106328677, 3.1163657629219523, 0.03833332889742368], a=0.1, v=0.1, t=0, r=0)

2024-03-19 15:32:11,160 - INFO - ur_api: Send data: movel(p[-0.14, -0.27, 0.15, -0.0014025100106328677, 3.1163657629219523, 0.03833332889742368], a=0.1, v=0.1, t=0, r=0)

2024-03-19 15:32:39,709 - INFO - ur_api: Send data: movel(p[-0.14, -0.27, 0.15, -0.0014025100106328677, 3.1163657629219523, 0.03833332889742368], a=0.1, v=0.1, t=0, r=0)

2024-03-19 15:32:39,709 - INFO - ur_api: Send data: movel(p[-0.14, -0.27, 0.15, -0.0014025100106328677, 3.1163657629219523, 0.03833332889742368], a=0.1, v=0.1, t=0, r=0)

2024-03-19 15:34:09,391 - INFO - ur_api: Send data: movel(p[-0.14, -0.27, 0.15, -0.0014025100106328677, 3.1163657629219523, 0.03833332889742368], a=0.1, v=0.1, t=0, r=0)

2024-03-19 15:34:09,391 - INFO - ur_api: Send data: movel(p[-0.14, -0.27, 0.15, -0.0014025100106328677, 3.1163657629219523, 0.03833332889742368], a=0.1, v=0.1, t=0, r=0)

2024-03-19 15:34:58,752 - INFO - ur_api: Send data: movel(p[-0.14, -0.27, 0.15, -0.0014025100106328677, 3.1163657629219523, 0.03833332889742368], a=0.1, v=0.1, t=0, r=0)

2024-03-19 15:34:58,752 - INFO - ur_api: Send data: movel(p[-0.14, -0.27, 0.15, -0.0014025100106328677, 3.1163657629219523, 0.03833332889742368], a=0.1, v=0.1, t=0, r=0)

2024-03-19 15:35:46,701 - INFO - ur_api: Send data: movel(p[-0.14, -0.27, 0.15, -0.0014025100106328677, 3.1163657629219523, 0.03833332889742368], a=0.1, v=0.1, t=0, r=0)

2024-03-19 15:35:46,701 - INFO - ur_api: Send data: movel(p[-0.14, -0.27, 0.15, -0.0014025100106328677, 3.1163657629219523, 0.03833332889742368], a=0.1, v=0.1, t=0, r=0)

2024-03-19 15:37:15,276 - INFO - ur_api: Send data: movel(p[-0.14, -0.27, 0.15, -0.0014025100106328677, 3.1163657629219523, 0.03833332889742368], a=0.1, v=0.1, t=0, r=0)

2024-03-19 15:37:15,276 - INFO - ur_api: Send data: movel(p[-0.14, -0.27, 0.15, -0.0014025100106328677, 3.1163657629219523, 0.03833332889742368], a=0.1, v=0.1, t=0, r=0)

2024-03-19 15:37:43,994 - INFO - ur_api: Send data: movel(p[-0.14, -0.27, 0.15, -0.0014025100106328677, 3.1163657629219523, 0.03833332889742368], a=0.1, v=0.1, t=0, r=0)

2024-03-19 15:37:43,994 - INFO - ur_api: Send data: movel(p[-0.14, -0.27, 0.15, -0.0014025100106328677, 3.1163657629219523, 0.03833332889742368], a=0.1, v=0.1, t=0, r=0)

2024-03-19 15:37:57,686 - INFO - ur_api: Send data: movel(p[-0.14, -0.27, 0.15, -0.0014025100106328677, 3.1163657629219523, 0.03833332889742368], a=0.1, v=0.1, t=0, r=0)

2024-03-19 15:37:57,686 - INFO - ur_api: Send data: movel(p[-0.14, -0.27, 0.15, -0.0014025100106328677, 3.1163657629219523, 0.03833332889742368], a=0.1, v=0.1, t=0, r=0)

2024-03-19 15:39:51,343 - INFO - ur_api: Send data: movej([0, -1.5707963267948966, 1.5707963267948966, -1.5707963267948966, -1.5707963267948966, 0], a=0.5, v=0.5, t=0, r=0)

2024-03-19 15:39:51,343 - INFO - ur_api: Send data: movej([0, -1.5707963267948966, 1.5707963267948966, -1.5707963267948966, -1.5707963267948966, 0], a=0.5, v=0.5, t=0, r=0)

2024-03-19 15:45:00,138 - INFO - ur_api: Send data: movej([0, -1.5707963267948966, 1.5707963267948966, -1.5707963267948966, -1.5707963267948966, 0], a=0.5, v=0.5, t=0, r=0)

2024-03-19 15:45:00,138 - INFO - ur_api: Send data: movej([0, -1.5707963267948966, 1.5707963267948966, -1.5707963267948966, -1.5707963267948966, 0], a=0.5, v=0.5, t=0, r=0)

2024-03-19 15:45:50,274 - INFO - ur_api: Send data: movej([0, -1.5707963267948966, 1.5707963267948966, -1.5707963267948966, -1.5707963267948966, 0], a=0.5, v=0.5, t=0, r=0)

2024-03-19 15:45:50,274 - INFO - ur_api: Send data: movej([0, -1.5707963267948966, 1.5707963267948966, -1.5707963267948966, -1.5707963267948966, 0], a=0.5, v=0.5, t=0, r=0)

2024-03-19 15:46:27,316 - INFO - ur_api: Send data: movej([0, -1.5707963267948966, 1.5707963267948966, -1.5707963267948966, -1.5707963267948966, 0], a=0.5, v=0.5, t=0, r=0)

2024-03-19 15:46:27,316 - INFO - ur_api: Send data: movej([0, -1.5707963267948966, 1.5707963267948966, -1.5707963267948966, -1.5707963267948966, 0], a=0.5, v=0.5, t=0, r=0)

2024-03-19 15:48:03,759 - INFO - ur_api: Send data: movej([0, -1.5707963267948966, 1.5707963267948966, -1.5707963267948966, -1.5707963267948966, 0], a=0.5, v=0.5, t=0, r=0)

2024-03-19 15:48:03,759 - INFO - ur_api: Send data: movej([0, -1.5707963267948966, 1.5707963267948966, -1.5707963267948966, -1.5707963267948966, 0], a=0.5, v=0.5, t=0, r=0)

2024-03-19 15:49:05,876 - INFO - ur_api: Send data: movej([0, -1.5707963267948966, 1.5707963267948966, -1.5707963267948966, -1.5707963267948966, 0], a=0.5, v=0.5, t=0, r=0)

2024-03-19 15:49:05,876 - INFO - ur_api: Send data: movej([0, -1.5707963267948966, 1.5707963267948966, -1.5707963267948966, -1.5707963267948966, 0], a=0.5, v=0.5, t=0, r=0)

2024-03-19 15:49:42,750 - INFO - ur_api: Send data: movej([0, -1.5707963267948966, 1.5707963267948966, -1.5707963267948966, -1.5707963267948966, 0], a=0.5, v=0.5, t=0, r=0)

2024-03-19 15:49:42,750 - INFO - ur_api: Send data: movej([0, -1.5707963267948966, 1.5707963267948966, -1.5707963267948966, -1.5707963267948966, 0], a=0.5, v=0.5, t=0, r=0)

2024-03-19 15:51:10,163 - INFO - ur_api: Send data: movej([0, -1.5707963267948966, 1.5707963267948966, -1.5707963267948966, -1.5707963267948966, 0], a=0.5, v=0.5, t=0, r=0)

2024-03-19 15:51:10,163 - INFO - ur_api: Send data: movej([0, -1.5707963267948966, 1.5707963267948966, -1.5707963267948966, -1.5707963267948966, 0], a=0.5, v=0.5, t=0, r=0)

2024-06-07 12:26:46,727 - INFO - ur_api: Send data: get_inverse_kin(p[0.1, 0.2, 0.2, 0, 3.14, 0])

2024-06-07 12:26:46,727 - INFO - ur_api: Send data: get_inverse_kin(p[0.1, 0.2, 0.2, 0, 3.14, 0])

2024-06-12 11:10:24,851 - INFO - ur_api: Send data: movej([-1.6431323462959493, -2.48351919635012, 0.0, -2.2555884593533113, 1.5939876031775888, -0.16069619281572356], a=0.5, v=0.5, t=0, r=0)

2024-06-12 11:10:24,851 - INFO - ur_api: Send data: movej([-1.6431323462959493, -2.48351919635012, 0.0, -2.2555884593533113, 1.5939876031775888, -0.16069619281572356], a=0.5, v=0.5, t=0, r=0)

2024-06-12 11:10:40,348 - INFO - ur_api: Send data: movej([-1.6314154358429185, -2.3377708592901714, 0.0, -2.4442191324951423, 1.5878026909923861, -0.1498544109675975], a=0.5, v=0.5, t=0, r=0)

2024-06-12 11:10:40,348 - INFO - ur_api: Send data: movej([-1.6314154358429185, -2.3377708592901714, 0.0, -2.4442191324951423, 1.5878026909923861, -0.1498544109675975], a=0.5, v=0.5, t=0, r=0)

2024-06-12 11:10:42,888 - INFO - ur_api: Send data: movej([-1.6310005937373842, -2.2495843300360936, 0.0, -2.5389047099483073, 1.6309777944555193, -0.14969169980288827], a=0.5, v=0.5, t=0, r=0)

2024-06-12 11:10:42,888 - INFO - ur_api: Send data: movej([-1.6310005937373842, -2.2495843300360936, 0.0, -2.5389047099483073, 1.6309777944555193, -0.14969169980288827], a=0.5, v=0.5, t=0, r=0)

2024-06-12 11:10:45,206 - INFO - ur_api: Send data: movej([-1.6662882956806604, -2.190766749545615, 0.0, -2.642735541324587, 1.620184424380008, -0.18722883242035734], a=0.5, v=0.5, t=0, r=0)

2024-06-12 11:10:45,206 - INFO - ur_api: Send data: movej([-1.6662882956806604, -2.190766749545615, 0.0, -2.642735541324587, 1.620184424380008, -0.18722883242035734], a=0.5, v=0.5, t=0, r=0)

2024-06-12 11:10:47,193 - INFO - ur_api: Send data: movej([-1.6512160871179495, -2.153667976561525, 0.0, -2.722109329429119, 1.6144761829677614, -0.1742882971417345], a=0.5, v=0.5, t=0, r=0)

2024-06-12 11:10:47,193 - INFO - ur_api: Send data: movej([-1.6512160871179495, -2.153667976561525, 0.0, -2.722109329429119, 1.6144761829677614, -0.1742882971417345], a=0.5, v=0.5, t=0, r=0)

2024-06-12 11:12:28,113 - INFO - ur_api: Send data: movej([4.964616583626223, -2.024833278931143, 0.0, -2.7912571431617867, 1.6403575170007425, 0.07091688007221346], a=0.5, v=0.5, t=0, r=0)

2024-06-12 11:12:28,113 - INFO - ur_api: Send data: movej([4.964616583626223, -2.024833278931143, 0.0, -2.7912571431617867, 1.6403575170007425, 0.07091688007221346], a=0.5, v=0.5, t=0, r=0)

2024-06-12 11:17:23,099 - INFO - ur_api: Send data: movej([-1.4111991241627768, -1.930360800223567, 0.0, -2.780240262407583, 1.6143929350264494, 0.041000526022808736], a=0.5, v=0.5, t=0, r=0)

2024-06-12 11:17:23,099 - INFO - ur_api: Send data: movej([-1.4111991241627768, -1.930360800223567, 0.0, -2.780240262407583, 1.6143929350264494, 0.041000526022808736], a=0.5, v=0.5, t=0, r=0)

2024-06-12 11:23:39,486 - INFO - ur_api: Send data: movej([-1.6592387960866124, -1.653681999524058, -1.3483777800936179, -1.737417855102616, 1.593554323555066, -0.04590137020403211], a=0.5, v=0.5, t=0, r=0)

2024-06-12 11:23:39,486 - INFO - ur_api: Send data: movej([-1.6592387960866124, -1.653681999524058, -1.3483777800936179, -1.737417855102616, 1.593554323555066, -0.04590137020403211], a=0.5, v=0.5, t=0, r=0)

2024-06-12 11:23:47,762 - INFO - ur_api: Send data: movej([-1.6858957505998688, -2.1256809881031984, 0.0, -2.6207493324739093, 1.679860157571011, -0.07297170805068984], a=0.5, v=0.5, t=0, r=0)

2024-06-12 11:23:47,762 - INFO - ur_api: Send data: movej([-1.6858957505998688, -2.1256809881031984, 0.0, -2.6207493324739093, 1.679860157571011, -0.07297170805068984], a=0.5, v=0.5, t=0, r=0)

2024-06-12 11:23:53,225 - INFO - ur_api: Send data: movej([-1.7678580270796551, -2.05543671235469, 0.0, -2.6998360188756245, 1.6767066634260754, -0.11171578156377357], a=0.5, v=0.5, t=0, r=0)

2024-06-12 11:23:53,225 - INFO - ur_api: Send data: movej([-1.7678580270796551, -2.05543671235469, 0.0, -2.6998360188756245, 1.6767066634260754, -0.11171578156377357], a=0.5, v=0.5, t=0, r=0)

2024-06-12 11:23:55,334 - INFO - ur_api: Send data: movej([-1.7538460917785867, -1.996699872517809, 0.0, -2.8443465569981465, 1.6683981286028764, -0.10653279828963338], a=0.5, v=0.5, t=0, r=0)

2024-06-12 11:23:55,334 - INFO - ur_api: Send data: movej([-1.7538460917785867, -1.996699872517809, 0.0, -2.8443465569981465, 1.6683981286028764, -0.10653279828963338], a=0.5, v=0.5, t=0, r=0)

2024-06-12 11:23:57,494 - INFO - ur_api: Send data: movej([-1.740010759024453, -1.9752670458432982, 0.0, -2.9080670318209894, 1.6660302876039998, -0.09698432138757003], a=0.5, v=0.5, t=0, r=0)

2024-06-12 11:23:57,494 - INFO - ur_api: Send data: movej([-1.740010759024453, -1.9752670458432982, 0.0, -2.9080670318209894, 1.6660302876039998, -0.09698432138757003], a=0.5, v=0.5, t=0, r=0)

2024-06-12 11:23:59,191 - INFO - ur_api: Send data: movej([-1.7554392995812131, -1.906452356126026, 0.0, -3.0653260910418063, 1.653282951234539, -0.11986581163368501], a=0.5, v=0.5, t=0, r=0)

2024-06-12 11:23:59,191 - INFO - ur_api: Send data: movej([-1.7554392995812131, -1.906452356126026, 0.0, -3.0653260910418063, 1.653282951234539, -0.11986581163368501], a=0.5, v=0.5, t=0, r=0)

2024-06-12 11:24:01,157 - INFO - ur_api: Send data: movej([-1.697099595621037, -1.9180906817307393, 0.0, -3.045840587557726, 1.624560616763175, -0.06300326398005453], a=0.5, v=0.5, t=0, r=0)

2024-06-12 11:24:01,157 - INFO - ur_api: Send data: movej([-1.697099595621037, -1.9180906817307393, 0.0, -3.045840587557726, 1.624560616763175, -0.06300326398005453], a=0.5, v=0.5, t=0, r=0)

2024-06-12 11:24:02,912 - INFO - ur_api: Send data: movej([-1.7609519374137834, -1.8664266325900412, 0.0, -3.0949037052078054, 1.565281472912862, -0.12480008966588321], a=0.5, v=0.5, t=0, r=0)

2024-06-12 11:24:02,912 - INFO - ur_api: Send data: movej([-1.7609519374137834, -1.8664266325900412, 0.0, -3.0949037052078054, 1.565281472912862, -0.12480008966588321], a=0.5, v=0.5, t=0, r=0)

2024-06-12 11:24:04,601 - INFO - ur_api: Send data: movej([-1.7776215543942313, -1.9459229172800796, 0.0, -3.1017045785981954, 1.5489664034244317, -0.13959674796103677], a=0.5, v=0.5, t=0, r=0)

2024-06-12 11:24:04,601 - INFO - ur_api: Send data: movej([-1.7776215543942313, -1.9459229172800796, 0.0, -3.1017045785981954, 1.5489664034244317, -0.13959674796103677], a=0.5, v=0.5, t=0, r=0)

2024-06-12 11:24:06,494 - INFO - ur_api: Send data: movej([-1.6999150082420877, -1.9717129816987953, 0.0, -3.120114926613541, 1.571677136594533, -0.06632474621269455], a=0.5, v=0.5, t=0, r=0)

2024-06-12 11:24:06,494 - INFO - ur_api: Send data: movej([-1.6999150082420877, -1.9717129816987953, 0.0, -3.120114926613541, 1.571677136594533, -0.06632474621269455], a=0.5, v=0.5, t=0, r=0)

2024-06-12 11:25:16,418 - INFO - ur_api: Send data: movej([-1.719459193828357, -2.199221368479452, 0.0, -2.940996889325712, 1.5205890110757383, -0.08294488087171725], a=0.5, v=0.5, t=0, r=0)

2024-06-12 11:25:16,418 - INFO - ur_api: Send data: movej([-1.719459193828357, -2.199221368479452, 0.0, -2.940996889325712, 1.5205890110757383, -0.08294488087171725], a=0.5, v=0.5, t=0, r=0)

2024-06-12 11:25:21,147 - INFO - ur_api: Send data: movej([-1.6716710097906065, -2.1674124399090835, 0.0, -2.9710965087370615, 1.453259159704743, -0.039702648125400586], a=0.5, v=0.5, t=0, r=0)

2024-06-12 11:25:21,147 - INFO - ur_api: Send data: movej([-1.6716710097906065, -2.1674124399090835, 0.0, -2.9710965087370615, 1.453259159704743, -0.039702648125400586], a=0.5, v=0.5, t=0, r=0)

2024-06-12 11:25:23,024 - INFO - ur_api: Send data: movej([-1.7257983066533493, -2.1016498747332935, 0.0, -3.038270932899354, 1.5179597840360903, -0.08872069415380257], a=0.5, v=0.5, t=0, r=0)

2024-06-12 11:25:23,024 - INFO - ur_api: Send data: movej([-1.7257983066533493, -2.1016498747332935, 0.0, -3.038270932899354, 1.5179597840360903, -0.08872069415380257], a=0.5, v=0.5, t=0, r=0)

2024-06-12 11:25:24,644 - INFO - ur_api: Send data: movej([-1.7224719310141074, -2.039551898719714, 0.0, -3.096776840658951, 1.4758665520029295, -0.08596400803580306], a=0.5, v=0.5, t=0, r=0)

2024-06-12 11:25:24,644 - INFO - ur_api: Send data: movej([-1.7224719310141074, -2.039551898719714, 0.0, -3.096776840658951, 1.4758665520029295, -0.08596400803580306], a=0.5, v=0.5, t=0, r=0)

2024-06-12 11:25:26,152 - INFO - ur_api: Send data: movej([-1.6381482149157418, -1.9973942288356061, 0.0, -3.232319238066957, 1.510245515240949, -0.003712184946672581], a=0.5, v=0.5, t=0, r=0)

2024-06-12 11:25:26,152 - INFO - ur_api: Send data: movej([-1.6381482149157418, -1.9973942288356061, 0.0, -3.232319238066957, 1.510245515240949, -0.003712184946672581], a=0.5, v=0.5, t=0, r=0)

2024-06-12 11:25:28,293 - INFO - ur_api: Send data: movej([-1.693960852646375, -1.9984534887556349, 0.0, -3.229930965907873, 1.5262988359227434, -0.05225266696607367], a=0.5, v=0.5, t=0, r=0)

2024-06-12 11:25:28,293 - INFO - ur_api: Send data: movej([-1.693960852646375, -1.9984534887556349, 0.0, -3.229930965907873, 1.5262988359227434, -0.05225266696607367], a=0.5, v=0.5, t=0, r=0)

2024-06-12 11:25:30,287 - INFO - ur_api: Send data: movej([-1.672765065209749, -2.069713671684302, 0.0, -3.1579161490688534, 1.4931555820303395, -0.03388872952649802], a=0.5, v=0.5, t=0, r=0)

2024-06-12 11:25:30,287 - INFO - ur_api: Send data: movej([-1.672765065209749, -2.069713671684302, 0.0, -3.1579161490688534, 1.4931555820303395, -0.03388872952649802], a=0.5, v=0.5, t=0, r=0)

2024-06-12 11:25:34,426 - INFO - ur_api: Send data: movej([-1.6406500577738334, -2.103006728610483, 0.0, -3.1263151704297427, 1.4653758858168877, -0.005912390290258029], a=0.5, v=0.5, t=0, r=0)

2024-06-12 11:25:34,426 - INFO - ur_api: Send data: movej([-1.6406500577738334, -2.103006728610483, 0.0, -3.1263151704297427, 1.4653758858168877, -0.005912390290258029], a=0.5, v=0.5, t=0, r=0)

2024-06-12 11:26:33,401 - INFO - ur_api: Send data: movej([-1.7346504241040546, -1.4243979795758845, -1.3461954723748317, -1.9352033557298132, 1.5276636565029773, -0.15170968575525423], a=0.5, v=0.5, t=0, r=0)

2024-06-12 11:26:33,401 - INFO - ur_api: Send data: movej([-1.7346504241040546, -1.4243979795758845, -1.3461954723748317, -1.9352033557298132, 1.5276636565029773, -0.15170968575525423], a=0.5, v=0.5, t=0, r=0)

2024-06-12 11:26:35,096 - INFO - ur_api: Send data: movej([-1.7646232380591775, -1.5981750081669885, -1.2006683162263507, -1.9916366990946468, 1.5122881352283726, -0.1773486437763594], a=0.5, v=0.5, t=0, r=0)

2024-06-12 11:26:35,096 - INFO - ur_api: Send data: movej([-1.7646232380591775, -1.5981750081669885, -1.2006683162263507, -1.9916366990946468, 1.5122881352283726, -0.1773486437763594], a=0.5, v=0.5, t=0, r=0)

2024-06-12 11:26:36,992 - INFO - ur_api: Send data: movej([-1.714381153719652, -1.4540496048022735, -1.289070329277285, -2.0446346530734356, 1.472999675478602, -0.1276082906136884], a=0.5, v=0.5, t=0, r=0)

2024-06-12 11:26:36,992 - INFO - ur_api: Send data: movej([-1.714381153719652, -1.4540496048022735, -1.289070329277285, -2.0446346530734356, 1.472999675478602, -0.1276082906136884], a=0.5, v=0.5, t=0, r=0)

2024-06-12 11:26:38,739 - INFO - ur_api: Send data: movej([-1.778059903396773, -1.60989006967719, -1.1848709965129882, -2.0031993158839185, 1.5540884294022563, -0.19045274020568925], a=0.5, v=0.5, t=0, r=0)

2024-06-12 11:26:38,739 - INFO - ur_api: Send data: movej([-1.778059903396773, -1.60989006967719, -1.1848709965129882, -2.0031993158839185, 1.5540884294022563, -0.19045274020568925], a=0.5, v=0.5, t=0, r=0)

2024-06-12 12:50:28,611 - INFO - ur_api: Send data: movej([-2.21057926901314, -2.528164385782562, 0.0, -2.1587300790664945, 1.5353822012702232, -0.6241569535833564], a=0.4, v=0.1, t=0, r=0)

2024-06-12 12:50:28,611 - INFO - ur_api: Send data: movej([-2.21057926901314, -2.528164385782562, 0.0, -2.1587300790664945, 1.5353822012702232, -0.6241569535833564], a=0.4, v=0.1, t=0, r=0)

2024-06-12 12:50:49,642 - INFO - ur_api: Send data: movej([-2.210579332486021, -2.5281643660757096, 0.0, -2.1290160221008887, 1.4919963695326952, -0.5822491768539394], a=0.4, v=0.1, t=0, r=0)

2024-06-12 12:50:49,642 - INFO - ur_api: Send data: movej([-2.210579332486021, -2.5281643660757096, 0.0, -2.1290160221008887, 1.4919963695326952, -0.5822491768539394], a=0.4, v=0.1, t=0, r=0)

2024-06-12 12:50:50,776 - INFO - ur_api: Send data: movej([-2.2105791512574924, -2.5281644375942958, 0.0, -2.2551218102575175, 1.5198712810627577, -0.6218989614729038], a=0.4, v=0.1, t=0, r=0)

2024-06-12 12:50:50,776 - INFO - ur_api: Send data: movej([-2.2105791512574924, -2.5281644375942958, 0.0, -2.2551218102575175, 1.5198712810627577, -0.6218989614729038], a=0.4, v=0.1, t=0, r=0)

2024-06-12 12:50:52,749 - INFO - ur_api: Send data: movej([-2.2105791512574924, -2.5281644375942958, 0.0, -2.2551218102575175, 1.5198712810627577, -0.6218989614729038], a=0.4, v=0.1, t=0, r=0)

2024-06-12 12:50:52,749 - INFO - ur_api: Send data: movej([-2.2105791512574924, -2.5281644375942958, 0.0, -2.2551218102575175, 1.5198712810627577, -0.6218989614729038], a=0.4, v=0.1, t=0, r=0)

2024-06-12 12:50:53,263 - INFO - ur_api: Send data: movej([-2.2105792513200937, -2.5281644945716093, 0.0, -2.208327236246917, 1.602255274019628, -0.6677178357568269], a=0.4, v=0.1, t=0, r=0)

2024-06-12 12:50:53,263 - INFO - ur_api: Send data: movej([-2.2105792513200937, -2.5281644945716093, 0.0, -2.208327236246917, 1.602255274019628, -0.6677178357568269], a=0.4, v=0.1, t=0, r=0)

2024-06-12 12:50:54,763 - INFO - ur_api: Send data: movej([-2.2105792054316264, -2.528164477988405, 0.0, -2.099324313500588, 1.4443077449455708, -0.5418187644206374], a=0.4, v=0.1, t=0, r=0)

2024-06-12 12:50:54,763 - INFO - ur_api: Send data: movej([-2.2105792054316264, -2.528164477988405, 0.0, -2.099324313500588, 1.4443077449455708, -0.5418187644206374], a=0.4, v=0.1, t=0, r=0)

2024-06-12 12:50:57,069 - INFO - ur_api: Send data: movej([-2.210579192959215, -2.5281644823477967, 0.0, -2.258564784457731, 1.6632507588693255, -0.7144124112718777], a=0.4, v=0.1, t=0, r=0)

2024-06-12 12:50:57,069 - INFO - ur_api: Send data: movej([-2.210579192959215, -2.5281644823477967, 0.0, -2.258564784457731, 1.6632507588693255, -0.7144124112718777], a=0.4, v=0.1, t=0, r=0)

2024-06-12 12:50:59,999 - INFO - ur_api: Send data: movej([-2.2105792513200937, -2.5281644522980153, 0.0, -2.208327278520511, 1.602255274019628, -0.6677178357568269], a=0.4, v=0.1, t=0, r=0)

2024-06-12 12:50:59,999 - INFO - ur_api: Send data: movej([-2.2105792513200937, -2.5281644522980153, 0.0, -2.208327278520511, 1.602255274019628, -0.6677178357568269], a=0.4, v=0.1, t=0, r=0)

2024-06-12 12:51:01,294 - INFO - ur_api: Send data: movej([-2.2105792645012197, -2.5281644082402974, 0.0, -2.255121833854083, 1.5198712726673655, -0.6218990745787754], a=0.4, v=0.1, t=0, r=0)

2024-06-12 12:51:01,294 - INFO - ur_api: Send data: movej([-2.2105792645012197, -2.5281644082402974, 0.0, -2.255121833854083, 1.5198712726673655, -0.6218990745787754], a=0.4, v=0.1, t=0, r=0)

2024-06-12 12:51:02,834 - INFO - ur_api: Send data: movej([-2.2105791431587405, -2.5281644533240226, 0.0, -2.129015949779737, 1.4919963588502085, -0.5822489872266848], a=0.4, v=0.1, t=0, r=0)

2024-06-12 12:51:02,834 - INFO - ur_api: Send data: movej([-2.2105791431587405, -2.5281644533240226, 0.0, -2.129015949779737, 1.4919963588502085, -0.5822489872266848], a=0.4, v=0.1, t=0, r=0)

2024-06-12 12:51:04,853 - INFO - ur_api: Send data: movej([-2.21057928673973, -2.5281643836940186, 0.0, -2.1487989685963242, 1.5962748537209204, -0.6232540986599745], a=0.4, v=0.1, t=0, r=0)

2024-06-12 12:51:04,853 - INFO - ur_api: Send data: movej([-2.21057928673973, -2.5281643836940186, 0.0, -2.1487989685963242, 1.5962748537209204, -0.6232540986599745], a=0.4, v=0.1, t=0, r=0)

2024-06-12 12:51:06,615 - INFO - ur_api: Send data: movej([-2.210579271904643, -2.5281643565769656, 0.0, -2.21965025227858, 1.545317799286471, -0.6232540838293783], a=0.4, v=0.1, t=0, r=0)

2024-06-12 12:51:06,615 - INFO - ur_api: Send data: movej([-2.210579271904643, -2.5281643565769656, 0.0, -2.21965025227858, 1.545317799286471, -0.6232540838293783], a=0.4, v=0.1, t=0, r=0)

2024-06-12 12:51:08,039 - INFO - ur_api: Send data: movej([-2.2105793645638316, -2.5281644229440254, 0.0, -2.2083273114371695, 1.6022552719640113, -0.6677179490237155], a=0.4, v=0.1, t=0, r=0)

2024-06-12 12:51:08,039 - INFO - ur_api: Send data: movej([-2.2105793645638316, -2.5281644229440254, 0.0, -2.2083273114371695, 1.6022552719640113, -0.6677179490237155], a=0.4, v=0.1, t=0, r=0)

2024-06-12 12:51:09,293 - INFO - ur_api: Send data: movej([-2.2105792192422857, -2.528164437703304, 0.0, -2.129015959401788, 1.4919963639593854, -0.5822490634307785], a=0.4, v=0.1, t=0, r=0)

2024-06-12 12:51:09,293 - INFO - ur_api: Send data: movej([-2.2105792192422857, -2.528164437703304, 0.0, -2.129015959401788, 1.4919963639593854, -0.5822490634307785], a=0.4, v=0.1, t=0, r=0)

2024-06-12 12:51:11,091 - INFO - ur_api: Send data: movej([-2.210579158660914, -2.5281644704781563, 0.0, -2.2196501412614866, 1.5453178043748332, -0.6232539706199575], a=0.4, v=0.1, t=0, r=0)

2024-06-12 12:51:11,091 - INFO - ur_api: Send data: movej([-2.210579158660914, -2.5281644704781563, 0.0, -2.2196501412614866, 1.5453178043748332, -0.6232539706199575], a=0.4, v=0.1, t=0, r=0)

2024-06-12 12:51:12,727 - INFO - ur_api: Send data: movej([-2.210579221563531, -2.5281644380889574, 0.0, -2.133171460092728, 1.499991129179177, -0.6255139611495577], a=0.4, v=0.1, t=0, r=0)

2024-06-12 12:51:12,727 - INFO - ur_api: Send data: movej([-2.210579221563531, -2.5281644380889574, 0.0, -2.133171460092728, 1.499991129179177, -0.6255139611495577], a=0.4, v=0.1, t=0, r=0)

2024-06-12 12:51:14,298 - INFO - ur_api: Send data: movej([-2.210579271904643, -2.5281643565769656, 0.0, -2.21965025227858, 1.545317799286471, -0.6232540838293783], a=0.4, v=0.1, t=0, r=0)

2024-06-12 12:51:14,298 - INFO - ur_api: Send data: movej([-2.210579271904643, -2.5281643565769656, 0.0, -2.21965025227858, 1.545317799286471, -0.6232540838293783], a=0.4, v=0.1, t=0, r=0)

2024-06-12 12:51:15,858 - INFO - ur_api: Send data: movej([-2.21057912934808, -2.5281644090619304, 0.0, -2.099324392067569, 1.4443077377240285, -0.5418186880006116], a=0.4, v=0.1, t=0, r=0)

2024-06-12 12:51:15,858 - INFO - ur_api: Send data: movej([-2.21057912934808, -2.5281644090619304, 0.0, -2.099324392067569, 1.4443077377240285, -0.5418186880006116], a=0.4, v=0.1, t=0, r=0)

2024-06-12 12:51:17,771 - INFO - ur_api: Send data: movej([-2.210579294143154, -2.5281643357073094, 0.0, -2.1133273844740597, 1.621721382534109, -0.6218991041846349], a=0.4, v=0.1, t=0, r=0)

2024-06-12 12:51:17,771 - INFO - ur_api: Send data: movej([-2.210579294143154, -2.5281643357073094, 0.0, -2.1133273844740597, 1.621721382534109, -0.6218991041846349], a=0.4, v=0.1, t=0, r=0)

2024-06-12 12:51:20,283 - INFO - ur_api: Send data: movej([-2.210579299920656, -2.5281644038319646, 0.0, -2.2352776643058654, 1.6416015220146192, -0.62551403960116], a=0.4, v=0.1, t=0, r=0)

2024-06-12 12:51:20,283 - INFO - ur_api: Send data: movej([-2.210579299920656, -2.5281644038319646, 0.0, -2.2352776643058654, 1.6416015220146192, -0.62551403960116], a=0.4, v=0.1, t=0, r=0)

2024-06-12 12:53:33,870 - INFO - ur_api: Send data: movej([-1.5768050039821246, -2.305416681368479, 0.0, -2.992830728046162, 2.3307000597071132, -1.2876689973951037], a=0.4, v=0.1, t=0, r=0)

2024-06-12 12:53:33,870 - INFO - ur_api: Send data: movej([-1.5768050039821246, -2.305416681368479, 0.0, -2.992830728046162, 2.3307000597071132, -1.2876689973951037], a=0.4, v=0.1, t=0, r=0)

2024-06-12 12:53:47,292 - INFO - ur_api: Send data: movej([-1.5768048263004042, -2.3054166486280203, 0.0, -2.4785529436103575, 1.6207554985655361, -0.9624498701402033], a=0.4, v=0.1, t=0, r=0)

2024-06-12 12:53:47,292 - INFO - ur_api: Send data: movej([-1.5768048263004042, -2.3054166486280203, 0.0, -2.4785529436103575, 1.6207554985655361, -0.9624498701402033], a=0.4, v=0.1, t=0, r=0)

2024-06-12 12:53:55,397 - INFO - ur_api: Send data: movej([-1.576804805462001, -2.305416645621145, 0.0, -2.37120439102867, 1.5458007593316334, -0.9611077502408083], a=0.4, v=0.1, t=0, r=0)

2024-06-12 12:53:55,397 - INFO - ur_api: Send data: movej([-1.576804805462001, -2.305416645621145, 0.0, -2.37120439102867, 1.5458007593316334, -0.9611077502408083], a=0.4, v=0.1, t=0, r=0)

2024-06-12 12:53:57,170 - INFO - ur_api: Send data: movej([-1.576804798524687, -2.305416645428832, 0.0, -2.335391738431988, 1.520837179876611, -0.9624498405113528], a=0.4, v=0.1, t=0, r=0)

2024-06-12 12:53:57,170 - INFO - ur_api: Send data: movej([-1.576804798524687, -2.305416645428832, 0.0, -2.335391738431988, 1.520837179876611, -0.9624498405113528], a=0.4, v=0.1, t=0, r=0)

2024-06-12 12:53:58,241 - INFO - ur_api: Send data: movej([-1.5768048212658143, -2.305416708805994, 0.0, -2.3819607076177483, 1.6065531133267998, -0.9602134374122157], a=0.4, v=0.1, t=0, r=0)

2024-06-12 12:53:58,241 - INFO - ur_api: Send data: movej([-1.5768048212658143, -2.305416708805994, 0.0, -2.3819607076177483, 1.6065531133267998, -0.9602134374122157], a=0.4, v=0.1, t=0, r=0)

2024-06-12 12:53:59,815 - INFO - ur_api: Send data: movej([-1.576804896046655, -2.3054166458919045, 0.0, -2.3712043884946725, 1.5458007623520211, -0.9611078407958109], a=0.4, v=0.1, t=0, r=0)

2024-06-12 12:53:59,815 - INFO - ur_api: Send data: movej([-1.576804896046655, -2.3054166458919045, 0.0, -2.3712043884946725, 1.5458007623520211, -0.9611078407958109], a=0.4, v=0.1, t=0, r=0)

2024-06-12 12:54:01,098 - INFO - ur_api: Send data: movej([-1.5768051001194066, -2.3054167668925887, 0.0, -2.9367605532004966, 2.3641823904011945, -1.1433264089613029], a=0.4, v=0.1, t=0, r=0)

2024-06-12 12:54:01,098 - INFO - ur_api: Send data: movej([-1.5768051001194066, -2.3054167668925887, 0.0, -2.9367605532004966, 2.3641823904011945, -1.1433264089613029], a=0.4, v=0.1, t=0, r=0)

2024-06-12 12:54:10,427 - INFO - ur_api: Send data: movej([-1.5768048919667812, -2.305416737333837, 0.0, -2.4319838183098863, 1.5350395644733945, -0.9602135087966456], a=0.4, v=0.1, t=0, r=0)

2024-06-12 12:54:10,427 - INFO - ur_api: Send data: movej([-1.5768048919667812, -2.305416737333837, 0.0, -2.4319838183098863, 1.5350395644733945, -0.9602135087966456], a=0.4, v=0.1, t=0, r=0)

2024-06-12 12:54:19,788 - INFO - ur_api: Send data: movej([-1.5768048919667812, -2.30541671019965, 0.0, -2.4319838454440728, 1.5350395644733945, -0.9602135087966456], a=0.4, v=0.1, t=0, r=0)

2024-06-12 12:54:19,788 - INFO - ur_api: Send data: movej([-1.5768048919667812, -2.30541671019965, 0.0, -2.4319838454440728, 1.5350395644733945, -0.9602135087966456], a=0.4, v=0.1, t=0, r=0)

2024-06-12 12:54:20,317 - INFO - ur_api: Send data: movej([-1.576805009534779, -2.3054167937560104, 0.0, -2.9367604469114625, 2.3641824368525355, -1.1433262975231195], a=0.4, v=0.1, t=0, r=0)

2024-06-12 12:54:20,317 - INFO - ur_api: Send data: movej([-1.576805009534779, -2.3054167937560104, 0.0, -2.9367604469114625, 2.3641824368525355, -1.1433262975231195], a=0.4, v=0.1, t=0, r=0)

2024-06-12 12:54:29,726 - INFO - ur_api: Send data: movej([-1.5768050050461972, -2.3054167968261132, 0.0, -2.9737544883065365, 2.341433196759946, -1.2394456406755556], a=0.4, v=0.1, t=0, r=0)

2024-06-12 12:54:29,726 - INFO - ur_api: Send data: movej([-1.5768050050461972, -2.3054167968261132, 0.0, -2.9737544883065365, 2.341433196759946, -1.2394456406755556], a=0.4, v=0.1, t=0, r=0)

2024-06-12 12:54:31,383 - INFO - ur_api: Send data: movej([-1.5768048891093418, -2.305416645699591, 0.0, -2.335391733643527, 1.520837186079676, -0.9624499309769126], a=0.4, v=0.1, t=0, r=0)

2024-06-12 12:54:31,383 - INFO - ur_api: Send data: movej([-1.5768048891093418, -2.305416645699591, 0.0, -2.335391733643527, 1.520837186079676, -0.9624499309769126], a=0.4, v=0.1, t=0, r=0)

2024-06-12 12:54:40,755 - INFO - ur_api: Send data: movej([-1.576804896046655, -2.305416618757718, 0.0, -2.371204415628859, 1.5458007623520211, -0.9611078407958109], a=0.4, v=0.1, t=0, r=0)

2024-06-12 12:54:40,755 - INFO - ur_api: Send data: movej([-1.576804896046655, -2.305416618757718, 0.0, -2.371204415628859, 1.5458007623520211, -0.9611078407958109], a=0.4, v=0.1, t=0, r=0)

2024-06-12 12:54:41,825 - INFO - ur_api: Send data: movej([-1.5768048311887242, -2.3054167087339543, 0.0, -2.356885070818932, 1.642287481100286, -0.9588691516467721], a=0.4, v=0.1, t=0, r=0)

2024-06-12 12:54:41,825 - INFO - ur_api: Send data: movej([-1.5768048311887242, -2.3054167087339543, 0.0, -2.356885070818932, 1.642287481100286, -0.9588691516467721], a=0.4, v=0.1, t=0, r=0)

2024-06-12 12:54:43,514 - INFO - ur_api: Send data: movej([-1.5768051024639862, -2.305416792740043, 0.0, -2.918717206382559, 2.376276209544967, -1.0953813297396273], a=0.4, v=0.1, t=0, r=0)

2024-06-12 12:54:43,514 - INFO - ur_api: Send data: movej([-1.5768051024639862, -2.305416792740043, 0.0, -2.918717206382559, 2.376276209544967, -1.0953813297396273], a=0.4, v=0.1, t=0, r=0)

2024-06-12 12:54:52,014 - INFO - ur_api: Send data: movej([-1.576804908859159, -2.3054167104845367, 0.0, -2.4427402300920695, 1.5957919168149097, -0.9611078545480735], a=0.4, v=0.1, t=0, r=0)

2024-06-12 12:54:52,014 - INFO - ur_api: Send data: movej([-1.576804908859159, -2.3054167104845367, 0.0, -2.4427402300920695, 1.5957919168149097, -0.9611078545480735], a=0.4, v=0.1, t=0, r=0)

2024-06-12 12:55:00,894 - INFO - ur_api: Send data: movej([-1.5768050050461972, -2.3054167968261132, 0.0, -2.9737544883065365, 2.341433196759946, -1.2394456406755556], a=0.4, v=0.1, t=0, r=0)

2024-06-12 12:55:00,894 - INFO - ur_api: Send data: movej([-1.5768050050461972, -2.3054167968261132, 0.0, -2.9737544883065365, 2.341433196759946, -1.2394456406755556], a=0.4, v=0.1, t=0, r=0)

2024-06-12 12:55:09,469 - INFO - ur_api: Send data: movej([-1.5768048024707095, -2.305416646945133, 0.0, -2.4319839118990423, 1.5350395674007642, -0.960213419271341], a=0.4, v=0.1, t=0, r=0)

2024-06-12 12:55:09,469 - INFO - ur_api: Send data: movej([-1.5768048024707095, -2.305416646945133, 0.0, -2.4319839118990423, 1.5350395674007642, -0.960213419271341], a=0.4, v=0.1, t=0, r=0)

2024-06-12 12:55:18,529 - INFO - ur_api: Send data: movej([-1.5768048263004042, -2.3054166214938343, 0.0, -2.4785529707445435, 1.6207554985655361, -0.9624498701402033], a=0.4, v=0.1, t=0, r=0)

2024-06-12 12:55:18,529 - INFO - ur_api: Send data: movej([-1.5768048263004042, -2.3054166214938343, 0.0, -2.4785529707445435, 1.6207554985655361, -0.9624498701402033], a=0.4, v=0.1, t=0, r=0)

2024-06-12 12:55:20,113 - INFO - ur_api: Send data: movej([-1.5768047925477982, -2.3054166208374465, 0.0, -2.4570595768983154, 1.4993052005606518, -0.9588691142800279], a=0.4, v=0.1, t=0, r=0)

2024-06-12 12:55:20,113 - INFO - ur_api: Send data: movej([-1.5768047925477982, -2.3054166208374465, 0.0, -2.4570595768983154, 1.4993052005606518, -0.9588691142800279], a=0.4, v=0.1, t=0, r=0)

2024-06-12 12:57:07,865 - INFO - ur_api: Send data: movej([-2.0552082945184726, -2.410590965179606, 0.0, -2.304163096316634, 1.572625588203838, -1.3405008214355567], a=0.4, v=0.1, t=0, r=0)

2024-06-12 12:57:07,865 - INFO - ur_api: Send data: movej([-2.0552082945184726, -2.410590965179606, 0.0, -2.304163096316634, 1.572625588203838, -1.3405008214355567], a=0.4, v=0.1, t=0, r=0)

2024-06-12 12:58:55,233 - INFO - ur_api: Send data: movej([-2.055208474306734, -2.410590900655127, 0.0, -2.258609852941002, 1.5645786117749618, -1.4278995879949188], a=0.4, v=0.1, t=0, r=0)

2024-06-12 12:58:55,233 - INFO - ur_api: Send data: movej([-2.055208474306734, -2.410590900655127, 0.0, -2.258609852941002, 1.5645786117749618, -1.4278995879949188], a=0.4, v=0.1, t=0, r=0)

2024-06-12 12:59:15,206 - INFO - ur_api: Send data: movej([-2.05520829778228, -2.410591003008412, 0.0, -2.3881777641439763, 1.5832201758449647, -1.4283020496221668], a=0.4, v=0.1, t=0, r=0)

2024-06-12 12:59:15,206 - INFO - ur_api: Send data: movej([-2.05520829778228, -2.410591003008412, 0.0, -2.3881777641439763, 1.5832201758449647, -1.4283020496221668], a=0.4, v=0.1, t=0, r=0)

2024-06-12 12:59:17,218 - INFO - ur_api: Send data: movej([-2.0552083865864414, -2.4105910262360752, 0.0, -2.388177742015545, 1.5832201681836158, -1.4283021381020578], a=0.4, v=0.1, t=0, r=0)

2024-06-12 12:59:17,218 - INFO - ur_api: Send data: movej([-2.0552083865864414, -2.4105910262360752, 0.0, -2.388177742015545, 1.5832201681836158, -1.4283021381020578], a=0.4, v=0.1, t=0, r=0)

2024-06-12 12:59:17,726 - INFO - ur_api: Send data: movej([-2.0552085624942125, -2.4105913713534517, 0.0, -4.110464097757797, 2.1937265460043465, -2.1611796534166405], a=0.4, v=0.1, t=0, r=0)

2024-06-12 12:59:17,726 - INFO - ur_api: Send data: movej([-2.0552085624942125, -2.4105913713534517, 0.0, -4.110464097757797, 2.1937265460043465, -2.1611796534166405], a=0.4, v=0.1, t=0, r=0)

2024-06-12 13:01:03,454 - INFO - ur_api: Send data: movej([-1.6338805758104196, -1.5912772477040438, -1.7957914251650953, -1.2515325729722007, 1.5241620621169774, -1.0081590131710945], a=0.4, v=0.1, t=0, r=0)

2024-06-12 13:01:03,454 - INFO - ur_api: Send data: movej([-1.6338805758104196, -1.5912772477040438, -1.7957914251650953, -1.2515325729722007, 1.5241620621169774, -1.0081590131710945], a=0.4, v=0.1, t=0, r=0)

2024-06-12 13:01:05,788 - INFO - ur_api: Send data: movej([-1.63908760469972, -1.3791047095683968, -1.9376440313221697, -1.4420168500034511, 1.4968465596241276, -1.0099285722640934], a=0.4, v=0.1, t=0, r=0)

2024-06-12 13:01:05,788 - INFO - ur_api: Send data: movej([-1.63908760469972, -1.3791047095683968, -1.9376440313221697, -1.4420168500034511, 1.4968465596241276, -1.0099285722640934], a=0.4, v=0.1, t=0, r=0)

2024-06-12 13:01:08,662 - INFO - ur_api: Send data: movej([-1.7425737550108455, -2.3554969856577657, -1.7525443586850795, 0.10945693877761756, 4.016979022288214, 0.44042858779065697], a=0.4, v=0.1, t=0, r=0)

2024-06-12 13:01:08,662 - INFO - ur_api: Send data: movej([-1.7425737550108455, -2.3554969856577657, -1.7525443586850795, 0.10945693877761756, 4.016979022288214, 0.44042858779065697], a=0.4, v=0.1, t=0, r=0)

2024-06-12 13:01:35,644 - INFO - ur_api: Send data: movej([-1.6410111170741346, -2.4131486084557805, -0.4467336516071053, 1.3261250804333382, 4.735458524341192, 2.1275974042643795], a=0.4, v=0.1, t=0, r=0)

2024-06-12 13:01:35,644 - INFO - ur_api: Send data: movej([-1.6410111170741346, -2.4131486084557805, -0.4467336516071053, 1.3261250804333382, 4.735458524341192, 2.1275974042643795], a=0.4, v=0.1, t=0, r=0)

2024-06-12 13:02:46,091 - INFO - ur_api: Send data: movej([-1.490661102292954, -2.0630554004334014, -2.1753634976009977, -0.4225282169352602, 1.5610302996138845, 0.18744903332129784], a=0.4, v=0.1, t=0, r=0)

2024-06-12 13:02:46,091 - INFO - ur_api: Send data: movej([-1.490661102292954, -2.0630554004334014, -2.1753634976009977, -0.4225282169352602, 1.5610302996138845, 0.18744903332129784], a=0.4, v=0.1, t=0, r=0)

2024-06-12 13:02:47,949 - INFO - ur_api: Send data: movej([-1.606037544725607, -2.0117169243432276, -2.062632654545844, -0.634252390917539, 1.623019219978259, 0.07242274602079285], a=0.4, v=0.1, t=0, r=0)

2024-06-12 13:02:47,949 - INFO - ur_api: Send data: movej([-1.606037544725607, -2.0117169243432276, -2.062632654545844, -0.634252390917539, 1.623019219978259, 0.07242274602079285], a=0.4, v=0.1, t=0, r=0)

2024-06-12 13:02:50,796 - INFO - ur_api: Send data: movej([-1.4784755848025568, -1.7896294925873546, -2.393588246469518, -0.5804904399039098, 1.5811882263361665, 0.1996190855263799], a=0.4, v=0.1, t=0, r=0)

2024-06-12 13:02:50,796 - INFO - ur_api: Send data: movej([-1.4784755848025568, -1.7896294925873546, -2.393588246469518, -0.5804904399039098, 1.5811882263361665, 0.1996190855263799], a=0.4, v=0.1, t=0, r=0)

2024-06-12 13:02:54,977 - INFO - ur_api: Send data: movej([-1.476508973075357, -1.9050713107235921, -2.433312507292228, -0.3996537990784894, 1.5760444434890541, 0.2017851030802378], a=0.4, v=0.1, t=0, r=0)

2024-06-12 13:02:54,977 - INFO - ur_api: Send data: movej([-1.476508973075357, -1.9050713107235921, -2.433312507292228, -0.3996537990784894, 1.5760444434890541, 0.2017851030802378], a=0.4, v=0.1, t=0, r=0)

2024-06-12 13:02:57,537 - INFO - ur_api: Send data: movej([-1.4646770465373673, -1.791573978612723, -2.4271665325530756, -0.49920144434661395, 1.545211970478479, 0.2137553759470763], a=0.4, v=0.1, t=0, r=0)

2024-06-12 13:02:57,537 - INFO - ur_api: Send data: movej([-1.4646770465373673, -1.791573978612723, -2.4271665325530756, -0.49920144434661395, 1.545211970478479, 0.2137553759470763], a=0.4, v=0.1, t=0, r=0)

2024-06-12 13:02:59,379 - INFO - ur_api: Send data: movej([-1.4548496880335688, -1.7869709242486034, -2.4299926231374216, -0.5070413703207857, 1.5197400652926318, 0.2238082966632986], a=0.4, v=0.1, t=0, r=0)

2024-06-12 13:02:59,379 - INFO - ur_api: Send data: movej([-1.4548496880335688, -1.7869709242486034, -2.4299926231374216, -0.5070413703207857, 1.5197400652926318, 0.2238082966632986], a=0.4, v=0.1, t=0, r=0)

2024-06-12 13:03:00,273 - INFO - ur_api: Send data: movej([-1.495084376604557, -1.9712786745414856, -2.1142372504126925, -0.6526147181224856, 1.5755671845202437, 0.18321559850205438], a=0.4, v=0.1, t=0, r=0)

2024-06-12 13:03:00,273 - INFO - ur_api: Send data: movej([-1.495084376604557, -1.9712786745414856, -2.1142372504126925, -0.6526147181224856, 1.5755671845202437, 0.18321559850205438], a=0.4, v=0.1, t=0, r=0)

2024-06-12 13:03:04,221 - INFO - ur_api: Send data: movej([-1.595612399054338, -1.9450317243945774, -2.3780119969839784, -0.3893409846973555, 1.5710655267494058, 0.05656904653573402], a=0.4, v=0.1, t=0, r=0)

2024-06-12 13:03:04,221 - INFO - ur_api: Send data: movej([-1.595612399054338, -1.9450317243945774, -2.3780119969839784, -0.3893409846973555, 1.5710655267494058, 0.05656904653573402], a=0.4, v=0.1, t=0, r=0)

2024-06-12 13:03:07,616 - INFO - ur_api: Send data: movej([-1.5959036475420585, -1.945117569726335, -2.3778306536176586, -0.3894380698975818, 1.5718729553097697, 0.030097860139304693], a=0.4, v=0.1, t=0, r=0)

2024-06-12 13:03:07,616 - INFO - ur_api: Send data: movej([-1.5959036475420585, -1.945117569726335, -2.3778306536176586, -0.3894380698975818, 1.5718729553097697, 0.030097860139304693], a=0.4, v=0.1, t=0, r=0)

2024-06-12 13:03:08,575 - INFO - ur_api: Send data: movej([-1.5908856974343433, -2.083770466511644, -2.0876154679068764, -0.5409904549365236, 1.57106526653684, 0.11365562683335129], a=0.4, v=0.1, t=0, r=0)

2024-06-12 13:03:08,575 - INFO - ur_api: Send data: movej([-1.5908856974343433, -2.083770466511644, -2.0876154679068764, -0.5409904549365236, 1.57106526653684, 0.11365562683335129], a=0.4, v=0.1, t=0, r=0)

2024-06-12 13:03:12,317 - INFO - ur_api: Send data: movej([-1.60491080842667, -1.8433367782836596, -2.3517691271138403, -0.5153614348917266, 1.5969056821067025, 0.07347566320777053], a=0.4, v=0.1, t=0, r=0)

2024-06-12 13:03:12,317 - INFO - ur_api: Send data: movej([-1.60491080842667, -1.8433367782836596, -2.3517691271138403, -0.5153614348917266, 1.5969056821067025, 0.07347566320777053], a=0.4, v=0.1, t=0, r=0)

2024-06-12 13:03:15,721 - INFO - ur_api: Send data: movej([-1.5894463680081437, -2.0910293809193488, -2.1150760452146535, -0.45413013948414466, 1.5661490079045683, 0.08879380186845692], a=0.4, v=0.1, t=0, r=0)

2024-06-12 13:03:15,721 - INFO - ur_api: Send data: movej([-1.5894463680081437, -2.0910293809193488, -2.1150760452146535, -0.45413013948414466, 1.5661490079045683, 0.08879380186845692], a=0.4, v=0.1, t=0, r=0)

2024-06-12 13:03:18,973 - INFO - ur_api: Send data: movej([-1.495084376604557, -1.9712786745414856, -2.1142372504126925, -0.6526147181224856, 1.5755671845202437, 0.18321559850205438], a=0.4, v=0.1, t=0, r=0)

2024-06-12 13:03:18,973 - INFO - ur_api: Send data: movej([-1.495084376604557, -1.9712786745414856, -2.1142372504126925, -0.6526147181224856, 1.5755671845202437, 0.18321559850205438], a=0.4, v=0.1, t=0, r=0)

2024-06-12 13:03:21,692 - INFO - ur_api: Send data: movej([-1.5908857668007945, -2.005583646556006, -2.070219358929841, -0.6365804282333295, 1.5710655035392957, 0.06129567896047238], a=0.4, v=0.1, t=0, r=0)

2024-06-12 13:03:21,692 - INFO - ur_api: Send data: movej([-1.5908857668007945, -2.005583646556006, -2.070219358929841, -0.6365804282333295, 1.5710655035392957, 0.06129567896047238], a=0.4, v=0.1, t=0, r=0)

2024-06-12 13:03:23,617 - INFO - ur_api: Send data: movej([-1.5766398082145958, -1.9386127690977855, -2.387388244274038, -0.39170972883309246, 1.5187073736043935, 0.1018602097257584], a=0.4, v=0.1, t=0, r=0)

2024-06-12 13:03:23,617 - INFO - ur_api: Send data: movej([-1.5766398082145958, -1.9386127690977855, -2.387388244274038, -0.39170972883309246, 1.5187073736043935, 0.1018602097257584], a=0.4, v=0.1, t=0, r=0)

2024-06-12 13:03:27,589 - INFO - ur_api: Send data: movej([-1.5939222812103524, -1.8493019155630812, -2.384972412781535, -0.4259409859693513, 1.566382381902469, 0.08432393097813728], a=0.4, v=0.1, t=0, r=0)

2024-06-12 13:03:27,589 - INFO - ur_api: Send data: movej([-1.5939222812103524, -1.8493019155630812, -2.384972412781535, -0.4259409859693513, 1.566382381902469, 0.08432393097813728], a=0.4, v=0.1, t=0, r=0)

2024-06-12 13:03:29,192 - INFO - ur_api: Send data: movej([-1.5939222812103524, -1.8493019155630812, -2.384972412781535, -0.4259409859693513, 1.566382381902469, 0.08432393097813728], a=0.4, v=0.1, t=0, r=0)

2024-06-12 13:03:29,192 - INFO - ur_api: Send data: movej([-1.5939222812103524, -1.8493019155630812, -2.384972412781535, -0.4259409859693513, 1.566382381902469, 0.08432393097813728], a=0.4, v=0.1, t=0, r=0)

2024-06-12 13:03:29,724 - INFO - ur_api: Send data: movej([-1.4937146736706581, -1.9725782995012733, -2.129478211927001, -0.6102938452792637, 1.5710627762843283, 0.2108266540495519], a=0.4, v=0.1, t=0, r=0)

2024-06-12 13:03:29,724 - INFO - ur_api: Send data: movej([-1.4937146736706581, -1.9725782995012733, -2.129478211927001, -0.6102938452792637, 1.5710627762843283, 0.2108266540495519], a=0.4, v=0.1, t=0, r=0)

2024-06-12 13:03:33,055 - INFO - ur_api: Send data: movej([-1.4646770465373673, -1.791573978612723, -2.4271665325530756, -0.49920144434661395, 1.545211970478479, 0.2137553759470763], a=0.4, v=0.1, t=0, r=0)

2024-06-12 13:03:33,055 - INFO - ur_api: Send data: movej([-1.4646770465373673, -1.791573978612723, -2.4271665325530756, -0.49920144434661395, 1.545211970478479, 0.2137553759470763], a=0.4, v=0.1, t=0, r=0)

2024-06-12 13:03:36,821 - INFO - ur_api: Send data: movej([-1.5970482342793644, -1.9336899438156965, -2.3500627524943756, -0.4808234736135829, 1.5750472740959938, 0.08120220111937923], a=0.4, v=0.1, t=0, r=0)

2024-06-12 13:03:36,821 - INFO - ur_api: Send data: movej([-1.5970482342793644, -1.9336899438156965, -2.3500627524943756, -0.4808234736135829, 1.5750472740959938, 0.08120220111937923], a=0.4, v=0.1, t=0, r=0)

2024-06-12 13:03:38,937 - INFO - ur_api: Send data: movej([-1.4937149533025877, -1.9725778206611242, -2.1294741828745924, -0.6103053413676034, 1.5710636956067747, 0.15846649594133305], a=0.4, v=0.1, t=0, r=0)

2024-06-12 13:03:38,937 - INFO - ur_api: Send data: movej([-1.4937149533025877, -1.9725778206611242, -2.1294741828745924, -0.6103053413676034, 1.5710636956067747, 0.15846649594133305], a=0.4, v=0.1, t=0, r=0)

2024-06-12 13:03:41,917 - INFO - ur_api: Send data: movej([-1.4646770465373673, -1.9074836846210068, -2.4509468707630977, -0.3595114001283079, 1.545211970478479, 0.2137553759470763], a=0.4, v=0.1, t=0, r=0)

2024-06-12 13:03:41,917 - INFO - ur_api: Send data: movej([-1.4646770465373673, -1.9074836846210068, -2.4509468707630977, -0.3595114001283079, 1.545211970478479, 0.2137553759470763], a=0.4, v=0.1, t=0, r=0)

2024-06-12 13:03:45,946 - INFO - ur_api: Send data: movej([-1.5092739775443347, -1.9793639102577196, -2.124529706111823, -0.5996762602793562, 1.6224088394772034, 0.1693150463413335], a=0.4, v=0.1, t=0, r=0)

2024-06-12 13:03:45,946 - INFO - ur_api: Send data: movej([-1.5092739775443347, -1.9793639102577196, -2.124529706111823, -0.5996762602793562, 1.6224088394772034, 0.1693150463413335], a=0.4, v=0.1, t=0, r=0)

2024-06-12 13:03:50,062 - INFO - ur_api: Send data: movej([-1.5860890260589957, -1.8355379833862908, -2.360842160502288, -0.5184216404680886, 1.5447278057690592, 0.09230380863273764], a=0.4, v=0.1, t=0, r=0)

2024-06-12 13:03:50,062 - INFO - ur_api: Send data: movej([-1.5860890260589957, -1.8355379833862908, -2.360842160502288, -0.5184216404680886, 1.5447278057690592, 0.09230380863273764], a=0.4, v=0.1, t=0, r=0)

2024-06-12 13:03:53,200 - INFO - ur_api: Send data: movej([-1.5092739775443347, -2.0617109496083894, -2.142092535491621, -0.4997663915488882, 1.6224088394772034, 0.1693150463413335], a=0.4, v=0.1, t=0, r=0)

2024-06-12 13:03:53,200 - INFO - ur_api: Send data: movej([-1.5092739775443347, -2.0617109496083894, -2.142092535491621, -0.4997663915488882, 1.6224088394772034, 0.1693150463413335], a=0.4, v=0.1, t=0, r=0)

2024-06-12 13:03:56,239 - INFO - ur_api: Send data: movej([-1.596289317259565, -1.938884717426542, -2.3642224300803902, -0.43537368886862216, 1.57294233472142, 0.0820440679955839], a=0.4, v=0.1, t=0, r=0)

2024-06-12 13:03:56,239 - INFO - ur_api: Send data: movej([-1.596289317259565, -1.938884717426542, -2.3642224300803902, -0.43537368886862216, 1.57294233472142, 0.0820440679955839], a=0.4, v=0.1, t=0, r=0)

2024-06-12 13:03:59,228 - INFO - ur_api: Send data: movej([-1.5755203499005506, -2.000002717804593, -2.077661928743707, -0.6401044556722549, 1.5187133637327528, 0.10298117222572024], a=0.4, v=0.1, t=0, r=0)

2024-06-12 13:03:59,228 - INFO - ur_api: Send data: movej([-1.5755203499005506, -2.000002717804593, -2.077661928743707, -0.6401044556722549, 1.5187133637327528, 0.10298117222572024], a=0.4, v=0.1, t=0, r=0)

2024-06-12 13:04:02,925 - INFO - ur_api: Send data: movej([-1.4749093762442904, -1.7965241901201976, -2.42406886571894, -0.49166330872356895, 1.5718647598673086, 0.1510922008361172], a=0.4, v=0.1, t=0, r=0)

2024-06-12 13:04:02,925 - INFO - ur_api: Send data: movej([-1.4749093762442904, -1.7965241901201976, -2.42406886571894, -0.49166330872356895, 1.5718647598673086, 0.1510922008361172], a=0.4, v=0.1, t=0, r=0)

2024-06-12 13:04:07,225 - INFO - ur_api: Send data: movej([-1.60491080842667, -1.8433367782836596, -2.3517691271138403, -0.5153614348917266, 1.5969056821067025, 0.07347566320777053], a=0.4, v=0.1, t=0, r=0)

2024-06-12 13:04:07,225 - INFO - ur_api: Send data: movej([-1.60491080842667, -1.8433367782836596, -2.3517691271138403, -0.5153614348917266, 1.5969056821067025, 0.07347566320777053], a=0.4, v=0.1, t=0, r=0)

2024-06-12 13:04:09,235 - INFO - ur_api: Send data: movej([-1.5984322770884143, -2.008560578765719, -2.0664787045769937, -0.6352589101021029, 1.59689268475277, 0.07995638924156104], a=0.4, v=0.1, t=0, r=0)

2024-06-12 13:04:09,235 - INFO - ur_api: Send data: movej([-1.5984322770884143, -2.008560578765719, -2.0664787045769937, -0.6352589101021029, 1.59689268475277, 0.07995638924156104], a=0.4, v=0.1, t=0, r=0)

2024-06-12 13:04:12,903 - INFO - ur_api: Send data: movej([-1.606037544725607, -2.0894763874285776, -2.0797539668597005, -0.5393716155183327, 1.623019219978259, 0.07242274602079285], a=0.4, v=0.1, t=0, r=0)

2024-06-12 13:04:12,903 - INFO - ur_api: Send data: movej([-1.606037544725607, -2.0894763874285776, -2.0797539668597005, -0.5393716155183327, 1.623019219978259, 0.07242274602079285], a=0.4, v=0.1, t=0, r=0)

2024-06-12 13:04:14,556 - INFO - ur_api: Send data: movej([-1.5984322770884143, -2.008560578765719, -2.0664787045769937, -0.6352589101021029, 1.59689268475277, 0.07995638924156104], a=0.4, v=0.1, t=0, r=0)

2024-06-12 13:04:14,556 - INFO - ur_api: Send data: movej([-1.5984322770884143, -2.008560578765719, -2.0664787045769937, -0.6352589101021029, 1.59689268475277, 0.07995638924156104], a=0.4, v=0.1, t=0, r=0)

2024-06-12 13:04:16,246 - INFO - ur_api: Send data: movej([-1.4746019888421125, -1.7963875490560788, -2.4242035985439494, -0.49175412390662016, 1.5710619894622875, 0.22993933953837659], a=0.4, v=0.1, t=0, r=0)

2024-06-12 13:04:16,246 - INFO - ur_api: Send data: movej([-1.4746019888421125, -1.7963875490560788, -2.4242035985439494, -0.49175412390662016, 1.5710619894622875, 0.22993933953837659], a=0.4, v=0.1, t=0, r=0)

2024-06-12 13:04:20,686 - INFO - ur_api: Send data: movej([-1.495084376604557, -1.9712786745414856, -2.1142372504126925, -0.6526147181224856, 1.5755671845202437, 0.18321559850205438], a=0.4, v=0.1, t=0, r=0)

2024-06-12 13:04:20,686 - INFO - ur_api: Send data: movej([-1.495084376604557, -1.9712786745414856, -2.1142372504126925, -0.6526147181224856, 1.5755671845202437, 0.18321559850205438], a=0.4, v=0.1, t=0, r=0)

2024-06-12 13:04:24,612 - INFO - ur_api: Send data: movej([-1.5914717883359344, -2.004433249967103, -2.055159931980388, -0.6788770168733541, 1.5730679933587879, 0.08685996957521999], a=0.4, v=0.1, t=0, r=0)

2024-06-12 13:04:24,612 - INFO - ur_api: Send data: movej([-1.5914717883359344, -2.004433249967103, -2.055159931980388, -0.6788770168733541, 1.5730679933587879, 0.08685996957521999], a=0.4, v=0.1, t=0, r=0)

2024-06-12 13:04:26,272 - INFO - ur_api: Send data: movej([-1.4937146736706581, -2.055118079655633, -2.147498818721897, -0.5097334583300079, 1.5710627762843283, 0.2108266540495519], a=0.4, v=0.1, t=0, r=0)

2024-06-12 13:04:26,272 - INFO - ur_api: Send data: movej([-1.4937146736706581, -2.055118079655633, -2.147498818721897, -0.5097334583300079, 1.5710627762843283, 0.2108266540495519], a=0.4, v=0.1, t=0, r=0)

2024-06-12 13:04:28,692 - INFO - ur_api: Send data: movej([-1.5911220746940975, -2.0056700463150996, -2.070064955544977, -0.6366461434521712, 1.5718729301533512, 0.03487943575837115], a=0.4, v=0.1, t=0, r=0)

2024-06-12 13:04:28,692 - INFO - ur_api: Send data: movej([-1.5911220746940975, -2.0056700463150996, -2.070064955544977, -0.6366461434521712, 1.5718729301533512, 0.03487943575837115], a=0.4, v=0.1, t=0, r=0)

2024-06-12 13:04:31,184 - INFO - ur_api: Send data: movej([-1.59212597121403, -2.0791791824929016, -2.058719019859299, -0.6266564406474194, 1.5753039841940517, 0.08611781269375414], a=0.4, v=0.1, t=0, r=0)

2024-06-12 13:04:31,184 - INFO - ur_api: Send data: movej([-1.59212597121403, -2.0791791824929016, -2.058719019859299, -0.6266564406474194, 1.5753039841940517, 0.08611781269375414], a=0.4, v=0.1, t=0, r=0)

2024-06-12 13:04:32,622 - INFO - ur_api: Send data: movej([-1.4548496880335688, -1.9032173166899193, -2.4541104313820736, -0.36667716963481756, 1.5197400652926318, 0.2238082966632986], a=0.4, v=0.1, t=0, r=0)

2024-06-12 13:04:32,622 - INFO - ur_api: Send data: movej([-1.4548496880335688, -1.9032173166899193, -2.4541104313820736, -0.36667716963481756, 1.5197400652926318, 0.2238082966632986], a=0.4, v=0.1, t=0, r=0)

2024-06-12 13:04:37,403 - INFO - ur_api: Send data: movej([-1.496510916059288, -1.9706782178543016, -2.098666408427088, -0.6945423907212739, 1.580261438170495, 0.1816066941627207], a=0.4, v=0.1, t=0, r=0)

2024-06-12 13:04:37,403 - INFO - ur_api: Send data: movej([-1.496510916059288, -1.9706782178543016, -2.098666408427088, -0.6945423907212739, 1.580261438170495, 0.1816066941627207], a=0.4, v=0.1, t=0, r=0)

2024-06-12 13:04:41,782 - INFO - ur_api: Send data: movej([-1.596289317259565, -1.938884717426542, -2.3642224300803902, -0.43537368886862216, 1.57294233472142, 0.0820440679955839], a=0.4, v=0.1, t=0, r=0)

2024-06-12 13:04:41,782 - INFO - ur_api: Send data: movej([-1.596289317259565, -1.938884717426542, -2.3642224300803902, -0.43537368886862216, 1.57294233472142, 0.0820440679955839], a=0.4, v=0.1, t=0, r=0)

2024-06-12 13:04:45,230 - INFO - ur_api: Send data: movej([-1.5766398082145958, -1.8318618798032957, -2.3652703254078933, -0.5205785369937269, 1.5187073736043935, 0.1018602097257584], a=0.4, v=0.1, t=0, r=0)

2024-06-12 13:04:45,230 - INFO - ur_api: Send data: movej([-1.5766398082145958, -1.8318618798032957, -2.3652703254078933, -0.5205785369937269, 1.5187073736043935, 0.1018602097257584], a=0.4, v=0.1, t=0, r=0)

2024-06-12 13:04:47,018 - INFO - ur_api: Send data: movej([-1.5956123255705754, -1.9450335434801336, -2.378015607115778, -0.3893285100732287, 1.5710653230455442, 0.10892899852648558], a=0.4, v=0.1, t=0, r=0)

2024-06-12 13:04:47,018 - INFO - ur_api: Send data: movej([-1.5956123255705754, -1.9450335434801336, -2.378015607115778, -0.3893285100732287, 1.5710653230455442, 0.10892899852648558], a=0.4, v=0.1, t=0, r=0)

2024-06-12 13:04:49,093 - INFO - ur_api: Send data: movej([-1.5766398082145958, -1.8318618798032957, -2.3652703254078933, -0.5205785369937269, 1.5187073736043935, 0.1018602097257584], a=0.4, v=0.1, t=0, r=0)

2024-06-12 13:04:49,093 - INFO - ur_api: Send data: movej([-1.5766398082145958, -1.8318618798032957, -2.3652703254078933, -0.5205785369937269, 1.5187073736043935, 0.1018602097257584], a=0.4, v=0.1, t=0, r=0)

2024-06-12 13:04:51,127 - INFO - ur_api: Send data: movej([-1.501458761315453, -1.9758737280846757, -2.127054799743543, -0.6048522478617405, 1.5965676179399613, 0.17696200557821598], a=0.4, v=0.1, t=0, r=0)

2024-06-12 13:04:51,127 - INFO - ur_api: Send data: movej([-1.501458761315453, -1.9758737280846757, -2.127054799743543, -0.6048522478617405, 1.5965676179399613, 0.17696200557821598], a=0.4, v=0.1, t=0, r=0)

2024-06-12 13:04:54,324 - INFO - ur_api: Send data: movej([-1.5959030649645813, -1.9451321130180708, -2.3778595195207886, -0.389338319281656, 1.571871340108543, 0.13481822811816294], a=0.4, v=0.1, t=0, r=0)

2024-06-12 13:04:54,324 - INFO - ur_api: Send data: movej([-1.5959030649645813, -1.9451321130180708, -2.3778595195207886, -0.389338319281656, 1.571871340108543, 0.13481822811816294], a=0.4, v=0.1, t=0, r=0)

2024-06-12 13:04:57,621 - INFO - ur_api: Send data: movej([-1.4749093762442904, -1.7965241901201976, -2.42406886571894, -0.49166330872356895, 1.5718647598673086, 0.1510922008361172], a=0.4, v=0.1, t=0, r=0)

2024-06-12 13:04:57,621 - INFO - ur_api: Send data: movej([-1.4749093762442904, -1.7965241901201976, -2.42406886571894, -0.49166330872356895, 1.5718647598673086, 0.1510922008361172], a=0.4, v=0.1, t=0, r=0)

2024-06-12 13:04:59,829 - INFO - ur_api: Send data: movej([-1.5908856974343433, -2.0055840787378143, -2.0702233208826524, -0.6365689897345772, 1.57106526653684, 0.11365562683335129], a=0.4, v=0.1, t=0, r=0)

2024-06-12 13:04:59,829 - INFO - ur_api: Send data: movej([-1.5908856974343433, -2.0055840787378143, -2.0702233208826524, -0.6365689897345772, 1.57106526653684, 0.11365562683335129], a=0.4, v=0.1, t=0, r=0)

2024-06-12 13:05:04,198 - INFO - ur_api: Send data: movej([-1.5894463680081437, -2.0910293809193488, -2.1150760452146535, -0.45413013948414466, 1.5661490079045683, 0.08879380186845692], a=0.4, v=0.1, t=0, r=0)

2024-06-12 13:05:04,198 - INFO - ur_api: Send data: movej([-1.5894463680081437, -2.0910293809193488, -2.1150760452146535, -0.45413013948414466, 1.5661490079045683, 0.08879380186845692], a=0.4, v=0.1, t=0, r=0)

2024-06-12 13:05:06,819 - INFO - ur_api: Send data: movej([-1.5901317739017433, -2.0870417042978318, -2.101567468934769, -0.4977016537032224, 1.5684897592726115, 0.0881995329395938], a=0.4, v=0.1, t=0, r=0)

2024-06-12 13:05:06,819 - INFO - ur_api: Send data: movej([-1.5901317739017433, -2.0870417042978318, -2.101567468934769, -0.4977016537032224, 1.5684897592726115, 0.0881995329395938], a=0.4, v=0.1, t=0, r=0)

2024-06-12 13:05:07,922 - INFO - ur_api: Send data: movej([-1.5766398082145958, -1.9386127690977855, -2.387388244274038, -0.39170972883309246, 1.5187073736043935, 0.1018602097257584], a=0.4, v=0.1, t=0, r=0)

2024-06-12 13:05:07,922 - INFO - ur_api: Send data: movej([-1.5766398082145958, -1.9386127690977855, -2.387388244274038, -0.39170972883309246, 1.5187073736043935, 0.1018602097257584], a=0.4, v=0.1, t=0, r=0)

2024-06-12 13:06:01,756 - INFO - ur_api: Send data: movej([-0.10402468513175367, -1.9699180938618852, -2.2223034969749795, -0.5196556646147478, 1.5713413193472463, 0.04108139690851216], a=0.4, v=0.1, t=0, r=0)

2024-06-12 13:06:01,756 - INFO - ur_api: Send data: movej([-0.10402468513175367, -1.9699180938618852, -2.2223034969749795, -0.5196556646147478, 1.5713413193472463, 0.04108139690851216], a=0.4, v=0.1, t=0, r=0)

2024-06-12 13:06:04,039 - INFO - ur_api: Send data: movej([0.11570070948138378, -1.9552130195260857, -2.5196826517643425, -0.22808593282677472, 1.613404014726117, 0.21737386554907626], a=0.4, v=0.1, t=0, r=0)

2024-06-12 13:06:04,039 - INFO - ur_api: Send data: movej([0.11570070948138378, -1.9552130195260857, -2.5196826517643425, -0.22808593282677472, 1.613404014726117, 0.21737386554907626], a=0.4, v=0.1, t=0, r=0)

2024-06-12 13:06:07,775 - INFO - ur_api: Send data: movej([0.13273535377960877, -1.889262212005005, -2.363528925554585, -0.4697299935591811, 1.52835508885677, 0.23442311001400626], a=0.4, v=0.1, t=0, r=0)

2024-06-12 13:06:07,775 - INFO - ur_api: Send data: movej([0.13273535377960877, -1.889262212005005, -2.363528925554585, -0.4697299935591811, 1.52835508885677, 0.23442311001400626], a=0.4, v=0.1, t=0, r=0)

2024-06-12 13:06:11,009 - INFO - ur_api: Send data: movej([0.1141486125799358, -1.993998322647875, -2.352200576132336, -0.4088141471070872, 1.5801290346217087, 0.21542239299892066], a=0.4, v=0.1, t=0, r=0)

2024-06-12 13:06:11,009 - INFO - ur_api: Send data: movej([0.1141486125799358, -1.993998322647875, -2.352200576132336, -0.4088141471070872, 1.5801290346217087, 0.21542239299892066], a=0.4, v=0.1, t=0, r=0)

2024-06-12 13:06:12,752 - INFO - ur_api: Send data: movej([-0.11614902028077378, -1.897553941124142, -2.35714401256085, -0.45718594688809233, 1.5713474834632433, 0.028957061505406455], a=0.4, v=0.1, t=0, r=0)

2024-06-12 13:06:12,752 - INFO - ur_api: Send data: movej([-0.11614902028077378, -1.897553941124142, -2.35714401256085, -0.45718594688809233, 1.5713474834632433, 0.028957061505406455], a=0.4, v=0.1, t=0, r=0)

2024-06-12 15:48:57,653 - INFO - ur_api: Send data: movej([0.007209437246770145, -1.895580200453277, -2.5417420813813716, -0.23136907967429615, 1.5646623987922434, 0.1521936792620708], a=0.4, v=0.1, t=0, r=0)

2024-06-12 15:48:57,653 - INFO - ur_api: Send data: movej([0.007209437246770145, -1.895580200453277, -2.5417420813813716, -0.23136907967429615, 1.5646623987922434, 0.1521936792620708], a=0.4, v=0.1, t=0, r=0)

2024-06-12 15:49:00,747 - INFO - ur_api: Send data: movej([0.00397172876410723, -1.945250958032746, -2.378145926983258, -0.3884246092212802, 1.5712829871921243, 0.10544457794282029], a=0.4, v=0.1, t=0, r=0)

2024-06-12 15:49:00,747 - INFO - ur_api: Send data: movej([0.00397172876410723, -1.945250958032746, -2.378145926983258, -0.3884246092212802, 1.5712829871921243, 0.10544457794282029], a=0.4, v=0.1, t=0, r=0)

2024-06-12 15:49:03,148 - INFO - ur_api: Send data: movej([-0.24245355019518955, -1.9488376186872545, -2.1686151397050253, -0.6030081983397559, 1.6582589483845467, -0.097722179570315], a=0.4, v=0.1, t=0, r=0)

2024-06-12 15:49:03,148 - INFO - ur_api: Send data: movej([-0.24245355019518955, -1.9488376186872545, -2.1686151397050253, -0.6030081983397559, 1.6582589483845467, -0.097722179570315], a=0.4, v=0.1, t=0, r=0)

2024-06-12 15:49:06,410 - INFO - ur_api: Send data: movej([0.0399060685975674, -1.7342033377881592, -2.506073956912523, -0.4876193302317922, 1.4854887455926669, 0.18569523150607364], a=0.4, v=0.1, t=0, r=0)

2024-06-12 15:49:06,410 - INFO - ur_api: Send data: movej([0.0399060685975674, -1.7342033377881592, -2.506073956912523, -0.4876193302317922, 1.4854887455926669, 0.18569523150607364], a=0.4, v=0.1, t=0, r=0)

2024-06-12 15:49:10,841 - INFO - ur_api: Send data: movej([-0.20126401546597605, -1.9340473960912061, -2.200117552946843, -0.575317083038962, 1.5278240221771688, -0.056209873871277544], a=0.4, v=0.1, t=0, r=0)

2024-06-12 15:49:10,841 - INFO - ur_api: Send data: movej([-0.20126401546597605, -1.9340473960912061, -2.200117552946843, -0.575317083038962, 1.5278240221771688, -0.056209873871277544], a=0.4, v=0.1, t=0, r=0)

2024-06-12 15:49:44,721 - INFO - ur_api: Send data: movej([-0.3008713446622737, -2.1561037785287205, -2.184369572858204, -0.02006134888235513, 1.5839595405961056, -0.16101020326984658], a=0.4, v=0.1, t=0, r=0)

2024-06-12 15:49:44,721 - INFO - ur_api: Send data: movej([-0.3008713446622737, -2.1561037785287205, -2.184369572858204, -0.02006134888235513, 1.5839595405961056, -0.16101020326984658], a=0.4, v=0.1, t=0, r=0)

2024-06-12 15:49:51,231 - INFO - ur_api: Send data: movej([0.024115083125856307, -1.8656705164948557, -2.42693742019515, -0.4888372304921417, 1.1844805572227672, 0.1828305848439256], a=0.4, v=0.1, t=0, r=0)

2024-06-12 15:49:51,231 - INFO - ur_api: Send data: movej([0.024115083125856307, -1.8656705164948557, -2.42693742019515, -0.4888372304921417, 1.1844805572227672, 0.1828305848439256], a=0.4, v=0.1, t=0, r=0)

2024-06-12 15:49:56,822 - INFO - ur_api: Send data: movej([-0.3233767943797369, -1.947966023237329, -2.232484590093949, -0.3520712388085697, 1.5599457792605418, -0.18300725389268338], a=0.4, v=0.1, t=0, r=0)

2024-06-12 15:49:56,822 - INFO - ur_api: Send data: movej([-0.3233767943797369, -1.947966023237329, -2.232484590093949, -0.3520712388085697, 1.5599457792605418, -0.18300725389268338], a=0.4, v=0.1, t=0, r=0)

2024-06-12 15:50:01,452 - INFO - ur_api: Send data: movej([-0.2924576312896747, -2.0953267306666117, -2.1267529335381106, -0.31085638394011716, 1.5544202504875695, -0.15258296955011186], a=0.4, v=0.1, t=0, r=0)

2024-06-12 15:50:01,452 - INFO - ur_api: Send data: movej([-0.2924576312896747, -2.0953267306666117, -2.1267529335381106, -0.31085638394011716, 1.5544202504875695, -0.15258296955011186], a=0.4, v=0.1, t=0, r=0)

2024-06-12 15:50:03,693 - INFO - ur_api: Send data: movej([-0.08401963751703412, -1.974774338096563, -2.3727454663772, -0.01794202489682134, 1.5094676567069387, 0.042751956655879435], a=0.4, v=0.1, t=0, r=0)

2024-06-12 15:50:03,693 - INFO - ur_api: Send data: movej([-0.08401963751703412, -1.974774338096563, -2.3727454663772, -0.01794202489682134, 1.5094676567069387, 0.042751956655879435], a=0.4, v=0.1, t=0, r=0)

2024-06-12 15:51:13,088 - INFO - ur_api: Send data: movej([0.06334118804209155, -1.8284539365511974, -2.1114475654167792, -0.8552438487402589, 1.5985194960487643, 0.3225208943451624], a=0.4, v=0.1, t=0, r=0)

2024-06-12 15:51:13,088 - INFO - ur_api: Send data: movej([0.06334118804209155, -1.8284539365511974, -2.1114475654167792, -0.8552438487402589, 1.5985194960487643, 0.3225208943451624], a=0.4, v=0.1, t=0, r=0)

2024-06-12 15:51:16,175 - INFO - ur_api: Send data: movej([-0.2622259063434704, -1.972080264309275, -2.190537857029919, -0.5496047761729338, 1.4835300218358587, -0.0019055883993673607], a=0.4, v=0.1, t=0, r=0)

2024-06-12 15:51:16,175 - INFO - ur_api: Send data: movej([-0.2622259063434704, -1.972080264309275, -2.190537857029919, -0.5496047761729338, 1.4835300218358587, -0.0019055883993673607], a=0.4, v=0.1, t=0, r=0)

2024-06-12 15:51:20,382 - INFO - ur_api: Send data: movej([0.07684719575472698, -1.8219212220707983, -2.1928810424885503, -0.6564074781688046, 1.556365561575305, 0.33687759391641753], a=0.4, v=0.1, t=0, r=0)

2024-06-12 15:51:20,382 - INFO - ur_api: Send data: movej([0.07684719575472698, -1.8219212220707983, -2.1928810424885503, -0.6564074781688046, 1.556365561575305, 0.33687759391641753], a=0.4, v=0.1, t=0, r=0)

2024-06-12 15:51:24,701 - INFO - ur_api: Send data: movej([-0.23578183678884146, -1.981459903553207, -1.9220874372092491, -0.8099132214253659, 1.527176247536782, 0.024569107427239445], a=0.4, v=0.1, t=0, r=0)

2024-06-12 15:51:24,701 - INFO - ur_api: Send data: movej([-0.23578183678884146, -1.981459903553207, -1.9220874372092491, -0.8099132214253659, 1.527176247536782, 0.024569107427239445], a=0.4, v=0.1, t=0, r=0)

2024-06-12 15:51:28,727 - INFO - ur_api: Send data: movej([0.07624969109728275, -1.808454860701332, -2.4053695897506175, -0.5809573046503212, 1.599584213951602, 0.3353905502259118], a=0.4, v=0.1, t=0, r=0)

2024-06-12 15:51:28,727 - INFO - ur_api: Send data: movej([0.07624969109728275, -1.808454860701332, -2.4053695897506175, -0.5809573046503212, 1.599584213951602, 0.3353905502259118], a=0.4, v=0.1, t=0, r=0)

2024-06-12 15:51:34,610 - INFO - ur_api: Send data: movej([0.055335816598734766, -1.6603393355493221, -2.3974158814439335, -0.6274798331523815, 1.653740834341094, 0.31679023574635584], a=0.4, v=0.1, t=0, r=0)

2024-06-12 15:51:34,610 - INFO - ur_api: Send data: movej([0.055335816598734766, -1.6603393355493221, -2.3974158814439335, -0.6274798331523815, 1.653740834341094, 0.31679023574635584], a=0.4, v=0.1, t=0, r=0)

2024-06-12 15:51:36,901 - INFO - ur_api: Send data: movej([0.1035079636253422, -1.6330135651150588, -2.3989675473944776, -0.6959438575380928, 1.5300210195185064, 0.36415232552928567], a=0.4, v=0.1, t=0, r=0)

2024-06-12 15:51:36,901 - INFO - ur_api: Send data: movej([0.1035079636253422, -1.6330135651150588, -2.3989675473944776, -0.6959438575380928, 1.5300210195185064, 0.36415232552928567], a=0.4, v=0.1, t=0, r=0)

2024-06-12 15:51:38,912 - INFO - ur_api: Send data: movej([0.06334118804209155, -1.9541475227176879, -2.1617614206145452, -0.6792364073760023, 1.5985194960487643, 0.3225208943451624], a=0.4, v=0.1, t=0, r=0)

2024-06-12 15:51:38,912 - INFO - ur_api: Send data: movej([0.06334118804209155, -1.9541475227176879, -2.1617614206145452, -0.6792364073760023, 1.5985194960487643, 0.3225208943451624], a=0.4, v=0.1, t=0, r=0)

2024-06-12 15:51:43,031 - INFO - ur_api: Send data: movej([-0.32891273491736983, -2.045301875599953, -1.9880829155464117, -0.45586099144619663, 1.8783778544063194, 0.009779323031344362], a=0.4, v=0.1, t=0, r=0)

2024-06-12 15:51:43,031 - INFO - ur_api: Send data: movej([-0.32891273491736983, -2.045301875599953, -1.9880829155464117, -0.45586099144619663, 1.8783778544063194, 0.009779323031344362], a=0.4, v=0.1, t=0, r=0)

2024-06-12 15:51:47,902 - INFO - ur_api: Send data: movej([0.08176274420709473, -1.8127163605980938, -2.431458892380986, -0.509321588291071, 1.5854292784765098, 0.3417895010753051], a=0.4, v=0.1, t=0, r=0)

2024-06-12 15:51:47,902 - INFO - ur_api: Send data: movej([0.08176274420709473, -1.8127163605980938, -2.431458892380986, -0.509321588291071, 1.5854292784765098, 0.3417895010753051], a=0.4, v=0.1, t=0, r=0)

2024-06-12 15:51:53,411 - INFO - ur_api: Send data: movej([0.09854828599359888, -1.8117159957644353, -2.1654639755465666, -0.7659272804112417, 1.489102241539355, 0.36013140267246124], a=0.4, v=0.1, t=0, r=0)

2024-06-12 15:51:53,411 - INFO - ur_api: Send data: movej([0.09854828599359888, -1.8117159957644353, -2.1654639755465666, -0.7659272804112417, 1.489102241539355, 0.36013140267246124], a=0.4, v=0.1, t=0, r=0)

2024-06-12 15:51:56,981 - INFO - ur_api: Send data: movej([-0.31650756937136604, -1.9902862142915547, -2.152868194788153, -0.5741470598146162, 1.6579247610092709, -0.05639414473904557], a=0.4, v=0.1, t=0, r=0)

2024-06-12 15:51:56,981 - INFO - ur_api: Send data: movej([-0.31650756937136604, -1.9902862142915547, -2.152868194788153, -0.5741470598146162, 1.6579247610092709, -0.05639414473904557], a=0.4, v=0.1, t=0, r=0)

2024-06-12 15:52:02,054 - INFO - ur_api: Send data: movej([0.0995341093183062, -1.8416439235422626, -2.5063861077731224, -0.28265660635470224, 1.540100066928392, 0.35860690402852013], a=0.4, v=0.1, t=0, r=0)

2024-06-12 15:52:02,054 - INFO - ur_api: Send data: movej([0.0995341093183062, -1.8416439235422626, -2.5063861077731224, -0.28265660635470224, 1.540100066928392, 0.35860690402852013], a=0.4, v=0.1, t=0, r=0)

2024-06-12 15:52:07,264 - INFO - ur_api: Send data: movej([-0.3030901507090339, -1.985089769075062, -2.1625150819363603, -0.5666506128567929, 1.614389644174789, -0.042803271002456], a=0.4, v=0.1, t=0, r=0)

2024-06-12 15:52:07,264 - INFO - ur_api: Send data: movej([-0.3030901507090339, -1.985089769075062, -2.1625150819363603, -0.5666506128567929, 1.614389644174789, -0.042803271002456], a=0.4, v=0.1, t=0, r=0)

2024-06-12 15:52:12,343 - INFO - ur_api: Send data: movej([-0.2759202396382139, -1.844334042734201, -2.135617820157484, -0.7317563544938358, 1.5271684030593151, -0.015607522866993972], a=0.4, v=0.1, t=0, r=0)

2024-06-12 15:52:12,343 - INFO - ur_api: Send data: movej([-0.2759202396382139, -1.844334042734201, -2.135617820157484, -0.7317563544938358, 1.5271684030593151, -0.015607522866993972], a=0.4, v=0.1, t=0, r=0)

2024-06-12 15:52:14,810 - INFO - ur_api: Send data: movej([0.0035249570220825532, -2.0819868469663794, -2.307808009041413, -0.012163458981354477, 1.7898934756601705, 0.3419031564813337], a=0.4, v=0.1, t=0, r=0)

2024-06-12 15:52:14,810 - INFO - ur_api: Send data: movej([0.0035249570220825532, -2.0819868469663794, -2.307808009041413, -0.012163458981354477, 1.7898934756601705, 0.3419031564813337], a=0.4, v=0.1, t=0, r=0)

2024-06-12 15:52:23,206 - INFO - ur_api: Send data: movej([-0.5117555913542872, -2.172781892870184, -2.1782220465078317, 0.0997636812567564, 2.407237233707123, -0.08714960012877664], a=0.4, v=0.1, t=0, r=0)

2024-06-12 15:52:23,206 - INFO - ur_api: Send data: movej([-0.5117555913542872, -2.172781892870184, -2.1782220465078317, 0.0997636812567564, 2.407237233707123, -0.08714960012877664], a=0.4, v=0.1, t=0, r=0)

2024-06-12 15:52:30,558 - INFO - ur_api: Send data: movej([-0.28995406480983543, -1.851308173291046, -2.151369369288896, -0.6660973299080213, 1.5720884277013218, -0.029598314158585038], a=0.4, v=0.1, t=0, r=0)

2024-06-12 15:52:30,558 - INFO - ur_api: Send data: movej([-0.28995406480983543, -1.851308173291046, -2.151369369288896, -0.6660973299080213, 1.5720884277013218, -0.029598314158585038], a=0.4, v=0.1, t=0, r=0)

2024-06-12 15:52:40,416 - INFO - ur_api: Send data: movej([-0.43734467554584544, -2.403626941119925, -1.970728602061783, 0.1931126110567141, 2.371780232578426, 0.008652861634165648], a=0.4, v=0.1, t=0, r=0)

2024-06-12 15:52:40,416 - INFO - ur_api: Send data: movej([-0.43734467554584544, -2.403626941119925, -1.970728602061783, 0.1931126110567141, 2.371780232578426, 0.008652861634165648], a=0.4, v=0.1, t=0, r=0)

2024-06-12 15:52:50,456 - INFO - ur_api: Send data: movej([-0.2622259063434704, -1.972080264309275, -2.190537857029919, -0.5496047761729338, 1.4835300218358587, -0.0019055883993673607], a=0.4, v=0.1, t=0, r=0)

2024-06-12 15:52:50,456 - INFO - ur_api: Send data: movej([-0.2622259063434704, -1.972080264309275, -2.190537857029919, -0.5496047761729338, 1.4835300218358587, -0.0019055883993673607], a=0.4, v=0.1, t=0, r=0)

2024-06-12 15:53:31,181 - INFO - ur_api: Send data: movej([0.026341510749445574, -1.717988616266503, -1.9629843460422798, -1.1990270769755142, 1.3995197934590569, -0.048076896868918584], a=0.4, v=0.1, t=0, r=0)

2024-06-12 15:53:31,181 - INFO - ur_api: Send data: movej([0.026341510749445574, -1.717988616266503, -1.9629843460422798, -1.1990270769755142, 1.3995197934590569, -0.048076896868918584], a=0.4, v=0.1, t=0, r=0)

2024-06-12 15:53:34,124 - INFO - ur_api: Send data: movej([-0.20663591310810425, -1.8699581222957657, -1.9482337729370067, -2.246926137853751, 3.774590235830357, -2.136554421825553], a=0.4, v=0.1, t=0, r=0)

2024-06-12 15:53:34,124 - INFO - ur_api: Send data: movej([-0.20663591310810425, -1.8699581222957657, -1.9482337729370067, -2.246926137853751, 3.774590235830357, -2.136554421825553], a=0.4, v=0.1, t=0, r=0)

2024-06-12 15:54:47,525 - INFO - ur_api: Send data: movej([0.07532527704564129, -1.4675719951901978, -2.592275508293555, -0.6444239718177958, 1.5675930953805917, -1.19495504185881], a=0.4, v=0.1, t=0, r=0)

2024-06-12 15:54:47,525 - INFO - ur_api: Send data: movej([0.07532527704564129, -1.4675719951901978, -2.592275508293555, -0.6444239718177958, 1.5675930953805917, -1.19495504185881], a=0.4, v=0.1, t=0, r=0)

2024-06-12 15:54:48,699 - INFO - ur_api: Send data: movej([0.07769990210599553, -1.4650558370002005, -2.586862623785887, -0.6636931237764981, 1.562686492954269, -1.1925543481171668], a=0.4, v=0.1, t=0, r=0)

2024-06-12 15:54:48,699 - INFO - ur_api: Send data: movej([0.07769990210599553, -1.4650558370002005, -2.586862623785887, -0.6636931237764981, 1.562686492954269, -1.1925543481171668], a=0.4, v=0.1, t=0, r=0)

2024-06-12 15:54:49,239 - INFO - ur_api: Send data: movej([0.18531970851154755, -1.4088365547883854, -2.641369719232242, -0.6467487854532525, 1.5626466777960533, -1.0850105013023104], a=0.4, v=0.1, t=0, r=0)

2024-06-12 15:54:49,239 - INFO - ur_api: Send data: movej([0.18531970851154755, -1.4088365547883854, -2.641369719232242, -0.6467487854532525, 1.5626466777960533, -1.0850105013023104], a=0.4, v=0.1, t=0, r=0)

2024-06-12 15:54:50,858 - INFO - ur_api: Send data: movej([0.07769990210599553, -1.4650558370002005, -2.586862623785887, -0.6636931237764981, 1.562686492954269, -1.1925543481171668], a=0.4, v=0.1, t=0, r=0)

2024-06-12 15:54:50,858 - INFO - ur_api: Send data: movej([0.07769990210599553, -1.4650558370002005, -2.586862623785887, -0.6636931237764981, 1.562686492954269, -1.1925543481171668], a=0.4, v=0.1, t=0, r=0)

2024-06-12 15:54:52,823 - INFO - ur_api: Send data: movej([0.39269860523756306, -1.342987184700794, -2.586727525210662, -1.2281672053652295, 0.9553507671739291, -0.7251150590356038], a=0.4, v=0.1, t=0, r=0)

2024-06-12 15:54:52,823 - INFO - ur_api: Send data: movej([0.39269860523756306, -1.342987184700794, -2.586727525210662, -1.2281672053652295, 0.9553507671739291, -0.7251150590356038], a=0.4, v=0.1, t=0, r=0)

2024-06-12 15:54:59,905 - INFO - ur_api: Send data: movej([0.067236797792395, -1.5553880689268542, -2.5511850915255834, -0.6221022757908332, 1.577071058386684, -1.203081617772564], a=0.4, v=0.1, t=0, r=0)

2024-06-12 15:54:59,905 - INFO - ur_api: Send data: movej([0.067236797792395, -1.5553880689268542, -2.5511850915255834, -0.6221022757908332, 1.577071058386684, -1.203081617772564], a=0.4, v=0.1, t=0, r=0)

2024-06-12 15:55:07,185 - INFO - ur_api: Send data: movej([0.06638180443753583, -1.5182525875060373, -2.5457360550365795, -0.6452697275616806, 1.5789421141102644, -1.2038727625370893], a=0.4, v=0.1, t=0, r=0)

2024-06-12 15:55:07,185 - INFO - ur_api: Send data: movej([0.06638180443753583, -1.5182525875060373, -2.5457360550365795, -0.6452697275616806, 1.5789421141102644, -1.2038727625370893], a=0.4, v=0.1, t=0, r=0)

2024-06-12 15:55:08,250 - INFO - ur_api: Send data: movej([0.06985277934477929, -1.513237150868801, -2.603916328734794, -0.5920766351079233, 1.5789311988106878, -1.2004016897879974], a=0.4, v=0.1, t=0, r=0)

2024-06-12 15:55:08,250 - INFO - ur_api: Send data: movej([0.06985277934477929, -1.513237150868801, -2.603916328734794, -0.5920766351079233, 1.5789311988106878, -1.2004016897879974], a=0.4, v=0.1, t=0, r=0)

2024-06-12 15:55:09,585 - INFO - ur_api: Send data: movej([0.6278318029070504, -1.6059378506301698, -2.4363489129084774, -1.9257990737679431, 0.7946102788013747, -0.08296773601892339], a=0.4, v=0.1, t=0, r=0)

2024-06-12 15:55:09,585 - INFO - ur_api: Send data: movej([0.6278318029070504, -1.6059378506301698, -2.4363489129084774, -1.9257990737679431, 0.7946102788013747, -0.08296773601892339], a=0.4, v=0.1, t=0, r=0)

2024-06-12 15:55:24,521 - INFO - ur_api: Send data: movej([0.4258932911607983, -1.2899542534128425, -2.61075656765442, -1.131490190260955, 1.1275249013712922, -0.7542664619573374], a=0.4, v=0.1, t=0, r=0)

2024-06-12 15:55:24,521 - INFO - ur_api: Send data: movej([0.4258932911607983, -1.2899542534128425, -2.61075656765442, -1.131490190260955, 1.1275249013712922, -0.7542664619573374], a=0.4, v=0.1, t=0, r=0)

2024-06-12 15:55:33,725 - INFO - ur_api: Send data: movej([0.17700504284639873, -1.4120610193393932, -2.6191897527103376, -0.6966393500169374, 1.5788173728314554, -1.0933244441155838], a=0.4, v=0.1, t=0, r=0)

2024-06-12 15:55:33,725 - INFO - ur_api: Send data: movej([0.17700504284639873, -1.4120610193393932, -2.6191897527103376, -0.6966393500169374, 1.5788173728314554, -1.0933244441155838], a=0.4, v=0.1, t=0, r=0)

2024-06-12 15:55:39,278 - INFO - ur_api: Send data: movej([0.5003662624932829, -1.6224959495606286, -2.379200321253744, -1.919436937327066, 0.6743301143503798, -0.14610660915920623], a=0.4, v=0.1, t=0, r=0)

2024-06-12 15:55:39,278 - INFO - ur_api: Send data: movej([0.5003662624932829, -1.6224959495606286, -2.379200321253744, -1.919436937327066, 0.6743301143503798, -0.14610660915920623], a=0.4, v=0.1, t=0, r=0)

2024-06-12 15:55:53,009 - INFO - ur_api: Send data: movej([0.17700504284639873, -1.4120610193393932, -2.6191897527103376, -0.6966393500169374, 1.5788173728314554, -1.0933244441155838], a=0.4, v=0.1, t=0, r=0)

2024-06-12 15:55:53,009 - INFO - ur_api: Send data: movej([0.17700504284639873, -1.4120610193393932, -2.6191897527103376, -0.6966393500169374, 1.5788173728314554, -1.0933244441155838], a=0.4, v=0.1, t=0, r=0)

2024-06-12 15:56:06,784 - INFO - ur_api: Send data: movej([0.3004947323263609, -1.4114628599773107, -2.5654427958993895, -0.9954887455977545, 1.091618628220388, -0.8884663712280557], a=0.4, v=0.1, t=0, r=0)

2024-06-12 15:56:06,784 - INFO - ur_api: Send data: movej([0.3004947323263609, -1.4114628599773107, -2.5654427958993895, -0.9954887455977545, 1.091618628220388, -0.8884663712280557], a=0.4, v=0.1, t=0, r=0)

2024-06-12 15:56:12,717 - INFO - ur_api: Send data: movej([0.179137870270766, -1.5028283755713994, -2.6051387912388306, -0.6124768668417218, 1.5553128284239832, -1.091067085642417], a=0.4, v=0.1, t=0, r=0)

2024-06-12 15:56:12,717 - INFO - ur_api: Send data: movej([0.179137870270766, -1.5028283755713994, -2.6051387912388306, -0.6124768668417218, 1.5553128284239832, -1.091067085642417], a=0.4, v=0.1, t=0, r=0)

2024-06-12 15:56:18,317 - INFO - ur_api: Send data: movej([0.16970842052106783, -1.5084366719312667, -2.6003723946231387, -0.6113594168613459, 1.5747503124916604, -1.100574277296694], a=0.4, v=0.1, t=0, r=0)

2024-06-12 15:56:18,317 - INFO - ur_api: Send data: movej([0.16970842052106783, -1.5084366719312667, -2.6003723946231387, -0.6113594168613459, 1.5747503124916604, -1.100574277296694], a=0.4, v=0.1, t=0, r=0)

2024-06-12 15:56:18,936 - INFO - ur_api: Send data: movej([0.06866615463614845, -1.5555944298394193, -2.5566493546464812, -0.6082838509276861, 1.5739454327289784, -1.2016139778869006], a=0.4, v=0.1, t=0, r=0)

2024-06-12 15:56:18,936 - INFO - ur_api: Send data: movej([0.06866615463614845, -1.5555944298394193, -2.5566493546464812, -0.6082838509276861, 1.5739454327289784, -1.2016139778869006], a=0.4, v=0.1, t=0, r=0)

2024-06-12 15:56:20,475 - INFO - ur_api: Send data: movej([0.18321142959826187, -1.4095020280371986, -2.6358195014497086, -0.6593420448169987, 1.5667376590956845, -1.0870715656275916], a=0.4, v=0.1, t=0, r=0)

2024-06-12 15:56:20,475 - INFO - ur_api: Send data: movej([0.18321142959826187, -1.4095020280371986, -2.6358195014497086, -0.6593420448169987, 1.5667376590956845, -1.0870715656275916], a=0.4, v=0.1, t=0, r=0)

2024-06-12 15:56:22,700 - INFO - ur_api: Send data: movej([0.07302701214448937, -1.5157602811234536, -2.5568013775004763, -0.6235774663854108, 1.5644274029886147, -1.1972920539128113], a=0.4, v=0.1, t=0, r=0)

2024-06-12 15:56:22,700 - INFO - ur_api: Send data: movej([0.07302701214448937, -1.5157602811234536, -2.5568013775004763, -0.6235774663854108, 1.5644274029886147, -1.1972920539128113], a=0.4, v=0.1, t=0, r=0)

2024-06-12 15:56:24,599 - INFO - ur_api: Send data: movej([0.06985277934477929, -1.4705147184850302, -2.5866307676302625, -0.6520846285962253, 1.5789311988106878, -1.2004016897879974], a=0.4, v=0.1, t=0, r=0)

2024-06-12 15:56:24,599 - INFO - ur_api: Send data: movej([0.06985277934477929, -1.4705147184850302, -2.5866307676302625, -0.6520846285962253, 1.5789311988106878, -1.2004016897879974], a=0.4, v=0.1, t=0, r=0)

2024-06-12 15:56:56,190 - INFO - ur_api: Send data: movej([0.427335621207958, -1.677690174967573, -1.476869658950843, -1.5595013516257001, 1.553423292464312, -1.4748339141753342], a=0.4, v=0.1, t=0, r=0)

2024-06-12 15:56:56,190 - INFO - ur_api: Send data: movej([0.427335621207958, -1.677690174967573, -1.476869658950843, -1.5595013516257001, 1.553423292464312, -1.4748339141753342], a=0.4, v=0.1, t=0, r=0)

2024-06-12 15:56:56,190 - INFO - ur_api: Send data: movej([0.427335621207958, -1.677690174967573, -1.476869658950843, -1.5595013516257001, 1.553423292464312, -1.4748339141753342], a=0.4, v=0.1, t=0, r=0)

2024-06-12 15:56:56,190 - INFO - ur_api: Send data: movej([0.427335621207958, -1.677690174967573, -1.476869658950843, -1.5595013516257001, 1.553423292464312, -1.4748339141753342], a=0.4, v=0.1, t=0, r=0)

2024-06-12 15:56:57,368 - INFO - ur_api: Send data: movej([0.4099806601762006, -1.7276367007674391, -1.4165588339550288, -1.576893153716681, 1.5714814392822152, -1.4922063812951512], a=0.4, v=0.1, t=0, r=0)

2024-06-12 15:56:57,368 - INFO - ur_api: Send data: movej([0.4099806601762006, -1.7276367007674391, -1.4165588339550288, -1.576893153716681, 1.5714814392822152, -1.4922063812951512], a=0.4, v=0.1, t=0, r=0)

2024-06-12 15:56:57,368 - INFO - ur_api: Send data: movej([0.4099806601762006, -1.7276367007674391, -1.4165588339550288, -1.576893153716681, 1.5714814392822152, -1.4922063812951512], a=0.4, v=0.1, t=0, r=0)

2024-06-12 15:56:57,368 - INFO - ur_api: Send data: movej([0.4099806601762006, -1.7276367007674391, -1.4165588339550288, -1.576893153716681, 1.5714814392822152, -1.4922063812951512], a=0.4, v=0.1, t=0, r=0)

2024-06-12 15:56:58,720 - INFO - ur_api: Send data: movej([0.47842116199935836, -1.678953309229657, -1.4830334801699934, -1.53313718100404, 1.5682394470296217, -1.4237849724854867], a=0.4, v=0.1, t=0, r=0)

2024-06-12 15:56:58,720 - INFO - ur_api: Send data: movej([0.47842116199935836, -1.678953309229657, -1.4830334801699934, -1.53313718100404, 1.5682394470296217, -1.4237849724854867], a=0.4, v=0.1, t=0, r=0)

2024-06-12 15:56:58,720 - INFO - ur_api: Send data: movej([0.47842116199935836, -1.678953309229657, -1.4830334801699934, -1.53313718100404, 1.5682394470296217, -1.4237849724854867], a=0.4, v=0.1, t=0, r=0)

2024-06-12 15:56:58,720 - INFO - ur_api: Send data: movej([0.47842116199935836, -1.678953309229657, -1.4830334801699934, -1.53313718100404, 1.5682394470296217, -1.4237849724854867], a=0.4, v=0.1, t=0, r=0)

2024-06-12 15:57:00,112 - INFO - ur_api: Send data: movej([0.4174855191037581, -1.681876586748618, -1.4421625721878337, -1.586848834544566, 1.5881849378474846, -1.4846854919843355], a=0.4, v=0.1, t=0, r=0)

2024-06-12 15:57:00,112 - INFO - ur_api: Send data: movej([0.4174855191037581, -1.681876586748618, -1.4421625721878337, -1.586848834544566, 1.5881849378474846, -1.4846854919843355], a=0.4, v=0.1, t=0, r=0)

2024-06-12 15:57:00,112 - INFO - ur_api: Send data: movej([0.4174855191037581, -1.681876586748618, -1.4421625721878337, -1.586848834544566, 1.5881849378474846, -1.4846854919843355], a=0.4, v=0.1, t=0, r=0)

2024-06-12 15:57:00,112 - INFO - ur_api: Send data: movej([0.4174855191037581, -1.681876586748618, -1.4421625721878337, -1.586848834544566, 1.5881849378474846, -1.4846854919843355], a=0.4, v=0.1, t=0, r=0)

2024-06-12 15:57:01,511 - INFO - ur_api: Send data: movej([0.503136224192047, -1.7269614334672339, -1.4058528827651282, -1.6292428486352066, 1.4282657763210929, -1.404228136829838], a=0.4, v=0.1, t=0, r=0)

2024-06-12 15:57:01,511 - INFO - ur_api: Send data: movej([0.503136224192047, -1.7269614334672339, -1.4058528827651282, -1.6292428486352066, 1.4282657763210929, -1.404228136829838], a=0.4, v=0.1, t=0, r=0)

2024-06-12 15:57:01,511 - INFO - ur_api: Send data: movej([0.503136224192047, -1.7269614334672339, -1.4058528827651282, -1.6292428486352066, 1.4282657763210929, -1.404228136829838], a=0.4, v=0.1, t=0, r=0)

2024-06-12 15:57:01,511 - INFO - ur_api: Send data: movej([0.503136224192047, -1.7269614334672339, -1.4058528827651282, -1.6292428486352066, 1.4282657763210929, -1.404228136829838], a=0.4, v=0.1, t=0, r=0)

2024-06-12 15:57:03,992 - INFO - ur_api: Send data: movej([0.47698552388329385, -1.6927031499006289, -1.4536552913714478, -1.5832992013062257, 1.5733283672193923, -1.4252204003488407], a=0.4, v=0.1, t=0, r=0)

2024-06-12 15:57:03,992 - INFO - ur_api: Send data: movej([0.47698552388329385, -1.6927031499006289, -1.4536552913714478, -1.5832992013062257, 1.5733283672193923, -1.4252204003488407], a=0.4, v=0.1, t=0, r=0)

2024-06-12 15:57:03,992 - INFO - ur_api: Send data: movej([0.47698552388329385, -1.6927031499006289, -1.4536552913714478, -1.5832992013062257, 1.5733283672193923, -1.4252204003488407], a=0.4, v=0.1, t=0, r=0)

2024-06-12 15:57:03,992 - INFO - ur_api: Send data: movej([0.47698552388329385, -1.6927031499006289, -1.4536552913714478, -1.5832992013062257, 1.5733283672193923, -1.4252204003488407], a=0.4, v=0.1, t=0, r=0)

2024-06-12 15:57:06,247 - INFO - ur_api: Send data: movej([0.4125555203590203, -1.7231746878530676, -1.4250052690283666, -1.5649165846222728, 1.5620983862209035, -1.4896254638668371], a=0.4, v=0.1, t=0, r=0)

2024-06-12 15:57:06,247 - INFO - ur_api: Send data: movej([0.4125555203590203, -1.7231746878530676, -1.4250052690283666, -1.5649165846222728, 1.5620983862209035, -1.4896254638668371], a=0.4, v=0.1, t=0, r=0)

2024-06-12 15:57:06,247 - INFO - ur_api: Send data: movej([0.4125555203590203, -1.7231746878530676, -1.4250052690283666, -1.5649165846222728, 1.5620983862209035, -1.4896254638668371], a=0.4, v=0.1, t=0, r=0)

2024-06-12 15:57:06,247 - INFO - ur_api: Send data: movej([0.4125555203590203, -1.7231746878530676, -1.4250052690283666, -1.5649165846222728, 1.5620983862209035, -1.4896254638668371], a=0.4, v=0.1, t=0, r=0)

2024-06-12 15:57:07,592 - INFO - ur_api: Send data: movej([0.4149435704255182, -1.7224028040238797, -1.3943879398318775, -1.597055009847364, 1.553403904993911, -1.487227822235731], a=0.4, v=0.1, t=0, r=0)

2024-06-12 15:57:07,592 - INFO - ur_api: Send data: movej([0.4149435704255182, -1.7224028040238797, -1.3943879398318775, -1.597055009847364, 1.553403904993911, -1.487227822235731], a=0.4, v=0.1, t=0, r=0)

2024-06-12 15:57:07,592 - INFO - ur_api: Send data: movej([0.4149435704255182, -1.7224028040238797, -1.3943879398318775, -1.597055009847364, 1.553403904993911, -1.487227822235731], a=0.4, v=0.1, t=0, r=0)

2024-06-12 15:57:07,592 - INFO - ur_api: Send data: movej([0.4149435704255182, -1.7224028040238797, -1.3943879398318775, -1.597055009847364, 1.553403904993911, -1.487227822235731], a=0.4, v=0.1, t=0, r=0)

2024-06-12 15:57:08,598 - INFO - ur_api: Send data: movej([0.45223286505904614, -1.7178683494040023, -1.4185200742522552, -1.6220745101332505, 1.4181574950829343, -1.4377007500639112], a=0.4, v=0.1, t=0, r=0)

2024-06-12 15:57:08,598 - INFO - ur_api: Send data: movej([0.45223286505904614, -1.7178683494040023, -1.4185200742522552, -1.6220745101332505, 1.4181574950829343, -1.4377007500639112], a=0.4, v=0.1, t=0, r=0)

2024-06-12 15:57:08,598 - INFO - ur_api: Send data: movej([0.45223286505904614, -1.7178683494040023, -1.4185200742522552, -1.6220745101332505, 1.4181574950829343, -1.4377007500639112], a=0.4, v=0.1, t=0, r=0)

2024-06-12 15:57:08,598 - INFO - ur_api: Send data: movej([0.45223286505904614, -1.7178683494040023, -1.4185200742522552, -1.6220745101332505, 1.4181574950829343, -1.4377007500639112], a=0.4, v=0.1, t=0, r=0)

2024-06-12 15:57:10,759 - INFO - ur_api: Send data: movej([0.42263322975636197, -1.6763797052599334, -1.4824383932266678, -1.5448805350153272, 1.570001148252989, -1.4795542869900833], a=0.4, v=0.1, t=0, r=0)

2024-06-12 15:57:10,759 - INFO - ur_api: Send data: movej([0.42263322975636197, -1.6763797052599334, -1.4824383932266678, -1.5448805350153272, 1.570001148252989, -1.4795542869900833], a=0.4, v=0.1, t=0, r=0)

2024-06-12 15:57:10,759 - INFO - ur_api: Send data: movej([0.42263322975636197, -1.6763797052599334, -1.4824383932266678, -1.5448805350153272, 1.570001148252989, -1.4795542869900833], a=0.4, v=0.1, t=0, r=0)

2024-06-12 15:57:10,759 - INFO - ur_api: Send data: movej([0.42263322975636197, -1.6763797052599334, -1.4824383932266678, -1.5448805350153272, 1.570001148252989, -1.4795542869900833], a=0.4, v=0.1, t=0, r=0)

2024-06-12 15:57:13,044 - INFO - ur_api: Send data: movej([0.42263322975636197, -1.6763797052599334, -1.4824383932266678, -1.5448805350153272, 1.570001148252989, -1.4795542869900833], a=0.4, v=0.1, t=0, r=0)

2024-06-12 15:57:13,044 - INFO - ur_api: Send data: movej([0.42263322975636197, -1.6763797052599334, -1.4824383932266678, -1.5448805350153272, 1.570001148252989, -1.4795542869900833], a=0.4, v=0.1, t=0, r=0)

2024-06-12 15:57:13,044 - INFO - ur_api: Send data: movej([0.42263322975636197, -1.6763797052599334, -1.4824383932266678, -1.5448805350153272, 1.570001148252989, -1.4795542869900833], a=0.4, v=0.1, t=0, r=0)

2024-06-12 15:57:13,044 - INFO - ur_api: Send data: movej([0.42263322975636197, -1.6763797052599334, -1.4824383932266678, -1.5448805350153272, 1.570001148252989, -1.4795542869900833], a=0.4, v=0.1, t=0, r=0)

2024-06-12 15:57:13,562 - INFO - ur_api: Send data: movej([0.46680976629695925, -1.673668128286043, -1.4676129767601507, -1.6214384375808912, 1.4149298743212135, -1.41398979427359], a=0.4, v=0.1, t=0, r=0)

2024-06-12 15:57:13,562 - INFO - ur_api: Send data: movej([0.46680976629695925, -1.673668128286043, -1.4676129767601507, -1.6214384375808912, 1.4149298743212135, -1.41398979427359], a=0.4, v=0.1, t=0, r=0)

2024-06-12 15:57:13,562 - INFO - ur_api: Send data: movej([0.46680976629695925, -1.673668128286043, -1.4676129767601507, -1.6214384375808912, 1.4149298743212135, -1.41398979427359], a=0.4, v=0.1, t=0, r=0)

2024-06-12 15:57:13,562 - INFO - ur_api: Send data: movej([0.46680976629695925, -1.673668128286043, -1.4676129767601507, -1.6214384375808912, 1.4149298743212135, -1.41398979427359], a=0.4, v=0.1, t=0, r=0)

2024-06-12 15:57:15,877 - INFO - ur_api: Send data: movej([0.45330671183671845, -1.7186496281969166, -1.3857782876754534, -1.6561676891148316, 1.4142648564814073, -1.4276426796995], a=0.4, v=0.1, t=0, r=0)

2024-06-12 15:57:15,877 - INFO - ur_api: Send data: movej([0.45330671183671845, -1.7186496281969166, -1.3857782876754534, -1.6561676891148316, 1.4142648564814073, -1.4276426796995], a=0.4, v=0.1, t=0, r=0)

2024-06-12 15:57:15,877 - INFO - ur_api: Send data: movej([0.45330671183671845, -1.7186496281969166, -1.3857782876754534, -1.6561676891148316, 1.4142648564814073, -1.4276426796995], a=0.4, v=0.1, t=0, r=0)

2024-06-12 15:57:15,877 - INFO - ur_api: Send data: movej([0.45330671183671845, -1.7186496281969166, -1.3857782876754534, -1.6561676891148316, 1.4142648564814073, -1.4276426796995], a=0.4, v=0.1, t=0, r=0)

2024-06-12 15:57:17,413 - INFO - ur_api: Send data: movej([0.45223286505904614, -1.7184483648507172, -1.386565095369519, -1.653449473569272, 1.4181574950829343, -1.4377007500639112], a=0.4, v=0.1, t=0, r=0)

2024-06-12 15:57:17,413 - INFO - ur_api: Send data: movej([0.45223286505904614, -1.7184483648507172, -1.386565095369519, -1.653449473569272, 1.4181574950829343, -1.4377007500639112], a=0.4, v=0.1, t=0, r=0)

2024-06-12 15:57:17,413 - INFO - ur_api: Send data: movej([0.45223286505904614, -1.7184483648507172, -1.386565095369519, -1.653449473569272, 1.4181574950829343, -1.4377007500639112], a=0.4, v=0.1, t=0, r=0)

2024-06-12 15:57:17,413 - INFO - ur_api: Send data: movej([0.45223286505904614, -1.7184483648507172, -1.386565095369519, -1.653449473569272, 1.4181574950829343, -1.4377007500639112], a=0.4, v=0.1, t=0, r=0)

2024-06-12 15:57:17,969 - INFO - ur_api: Send data: movej([0.5210596583329947, -1.6842144683728324, -1.421118175490492, -1.665819111020478, 1.4178883077307847, -1.3591683986843435], a=0.4, v=0.1, t=0, r=0)

2024-06-12 15:57:17,969 - INFO - ur_api: Send data: movej([0.5210596583329947, -1.6842144683728324, -1.421118175490492, -1.665819111020478, 1.4178883077307847, -1.3591683986843435], a=0.4, v=0.1, t=0, r=0)

2024-06-12 15:57:17,969 - INFO - ur_api: Send data: movej([0.5210596583329947, -1.6842144683728324, -1.421118175490492, -1.665819111020478, 1.4178883077307847, -1.3591683986843435], a=0.4, v=0.1, t=0, r=0)

2024-06-12 15:57:17,969 - INFO - ur_api: Send data: movej([0.5210596583329947, -1.6842144683728324, -1.421118175490492, -1.665819111020478, 1.4178883077307847, -1.3591683986843435], a=0.4, v=0.1, t=0, r=0)

2024-06-12 15:57:19,263 - INFO - ur_api: Send data: movej([0.4097936532975295, -1.731584806838778, -1.3771888297428247, -1.6210150258447398, 1.5721632718502159, -1.4924023004107942], a=0.4, v=0.1, t=0, r=0)

2024-06-12 15:57:19,263 - INFO - ur_api: Send data: movej([0.4097936532975295, -1.731584806838778, -1.3771888297428247, -1.6210150258447398, 1.5721632718502159, -1.4924023004107942], a=0.4, v=0.1, t=0, r=0)

2024-06-12 15:57:19,263 - INFO - ur_api: Send data: movej([0.4097936532975295, -1.731584806838778, -1.3771888297428247, -1.6210150258447398, 1.5721632718502159, -1.4924023004107942], a=0.4, v=0.1, t=0, r=0)

2024-06-12 15:57:19,263 - INFO - ur_api: Send data: movej([0.4097936532975295, -1.731584806838778, -1.3771888297428247, -1.6210150258447398, 1.5721632718502159, -1.4924023004107942], a=0.4, v=0.1, t=0, r=0)

2024-06-12 15:57:21,620 - INFO - ur_api: Send data: movej([0.4490700217095791, -1.71742176629451, -1.4206132291730715, -1.6144103858856123, 1.4296199800421967, -1.4677347416195425], a=0.4, v=0.1, t=0, r=0)

2024-06-12 15:57:21,620 - INFO - ur_api: Send data: movej([0.4490700217095791, -1.71742176629451, -1.4206132291730715, -1.6144103858856123, 1.4296199800421967, -1.4677347416195425], a=0.4, v=0.1, t=0, r=0)

2024-06-12 15:57:21,620 - INFO - ur_api: Send data: movej([0.4490700217095791, -1.71742176629451, -1.4206132291730715, -1.6144103858856123, 1.4296199800421967, -1.4677347416195425], a=0.4, v=0.1, t=0, r=0)

2024-06-12 15:57:21,620 - INFO - ur_api: Send data: movej([0.4490700217095791, -1.71742176629451, -1.4206132291730715, -1.6144103858856123, 1.4296199800421967, -1.4677347416195425], a=0.4, v=0.1, t=0, r=0)

2024-06-12 15:57:23,804 - INFO - ur_api: Send data: movej([0.5062219484494768, -1.7277909443171282, -1.4030244365120588, -1.6380469928338104, 1.4170338440889012, -1.374157351628317], a=0.4, v=0.1, t=0, r=0)

2024-06-12 15:57:23,804 - INFO - ur_api: Send data: movej([0.5062219484494768, -1.7277909443171282, -1.4030244365120588, -1.6380469928338104, 1.4170338440889012, -1.374157351628317], a=0.4, v=0.1, t=0, r=0)

2024-06-12 15:57:23,804 - INFO - ur_api: Send data: movej([0.5062219484494768, -1.7277909443171282, -1.4030244365120588, -1.6380469928338104, 1.4170338440889012, -1.374157351628317], a=0.4, v=0.1, t=0, r=0)

2024-06-12 15:57:23,804 - INFO - ur_api: Send data: movej([0.5062219484494768, -1.7277909443171282, -1.4030244365120588, -1.6380469928338104, 1.4170338440889012, -1.374157351628317], a=0.4, v=0.1, t=0, r=0)

2024-06-12 15:57:25,492 - INFO - ur_api: Send data: movej([0.4221836854715404, -1.6833148921308965, -1.4364107933571082, -1.601353995315297, 1.5715875470590404, -1.4800038139925462], a=0.4, v=0.1, t=0, r=0)

2024-06-12 15:57:25,492 - INFO - ur_api: Send data: movej([0.4221836854715404, -1.6833148921308965, -1.4364107933571082, -1.601353995315297, 1.5715875470590404, -1.4800038139925462], a=0.4, v=0.1, t=0, r=0)

2024-06-12 15:57:25,492 - INFO - ur_api: Send data: movej([0.4221836854715404, -1.6833148921308965, -1.4364107933571082, -1.601353995315297, 1.5715875470590404, -1.4800038139925462], a=0.4, v=0.1, t=0, r=0)

2024-06-12 15:57:25,492 - INFO - ur_api: Send data: movej([0.4221836854715404, -1.6833148921308965, -1.4364107933571082, -1.601353995315297, 1.5715875470590404, -1.4800038139925462], a=0.4, v=0.1, t=0, r=0)

2024-06-12 15:57:27,823 - INFO - ur_api: Send data: movej([0.4199459303395714, -1.6808370887877597, -1.4429918098112244, -1.5877882544640798, 1.5794887491914242, -1.4822347765558854], a=0.4, v=0.1, t=0, r=0)

